; generated by Slic3r 1.0.0RC3 on 2015-03-18 at 11:53:08

; layer_height = 0.3
; perimeters = 3
; top_solid_layers = 3
; bottom_solid_layers = 3
; fill_density = 0.2
; perimeter_speed = 20
; infill_speed = 40
; travel_speed = 130
; nozzle_diameter = 0.4
; filament_diameter = 1.69
; extrusion_multiplier = 1.015
; perimeters extrusion width = 0.40mm
; infill extrusion width = 0.42mm
; solid infill extrusion width = 0.42mm
; top infill extrusion width = 0.42mm

G21 ; set units to millimeters
M104 S190 ; set temperature
G28 ; home all axes
G1 Z5 F5000 ; lift nozzle
M109 S190 ; wait for temperature to be reached
G90 ; use absolute coordinates
G92 E0
M82 ; use absolute distances for extrusion
M106 S255
G1 F1800.000 E-1.00000
G92 E0
G1 Z0.300 F7800.000
G1 X69.899 Y64.720 F7800.000
G1 E1.00000 F1800.000
G1 X70.869 Y63.930 E1.06793 F600.000
G1 X71.979 Y63.340 E1.13618
G1 X73.179 Y62.970 E1.20437
G1 X74.429 Y62.850 E1.27255
G1 X125.579 Y62.850 E4.04990
G1 X126.829 Y62.970 E4.11808
G1 X128.029 Y63.340 E4.18626
G1 X129.139 Y63.930 E4.25452
G1 X130.109 Y64.720 E4.32245
G1 X130.899 Y65.690 E4.39037
G1 X131.489 Y66.800 E4.45863
G1 X131.859 Y68.000 E4.52681
G1 X131.979 Y69.250 E4.59500
G1 X131.979 Y130.750 E7.93433
G1 X131.859 Y132.000 E8.00251
G1 X131.489 Y133.200 E8.07070
G1 X130.899 Y134.310 E8.13895
G1 X130.109 Y135.280 E8.20688
G1 X129.139 Y136.070 E8.27481
G1 X128.029 Y136.660 E8.34306
G1 X126.829 Y137.030 E8.41125
G1 X125.579 Y137.150 E8.47943
G1 X74.429 Y137.150 E11.25677
G1 X73.179 Y137.030 E11.32496
G1 X71.979 Y136.660 E11.39314
G1 X70.869 Y136.070 E11.46140
G1 X69.899 Y135.280 E11.52933
G1 X69.109 Y134.310 E11.59725
G1 X68.519 Y133.200 E11.66551
G1 X68.149 Y132.000 E11.73369
G1 X68.029 Y130.750 E11.80188
G1 X68.029 Y69.250 E15.14121
G1 X68.149 Y68.000 E15.20939
G1 X68.519 Y66.800 E15.27758
G1 X69.109 Y65.690 E15.34583
G1 X69.861 Y64.767 E15.41050
G1 F1800.000 E14.41050
G92 E0
G1 X108.823 Y75.267 F7800.000
G1 E1.00000 F1800.000
G1 X108.952 Y74.941 E1.01906 F600.000
G1 X109.148 Y74.643 E1.03842
G1 X109.399 Y74.388 E1.05783
G1 X109.704 Y74.191 E1.07759
G1 X110.021 Y74.065 E1.09611
G1 X110.349 Y74.004 E1.11423
G1 X110.657 Y74.004 E1.13094
G1 X110.985 Y74.065 E1.14907
G1 X111.312 Y74.193 E1.16812
G1 X111.602 Y74.383 E1.18696
G1 X111.862 Y74.643 E1.20692
G1 X112.058 Y74.941 E1.22628
G1 X112.191 Y75.280 E1.24607
G1 X112.247 Y75.582 E1.26271
G1 X112.247 Y75.917 E1.28092
G1 X112.191 Y76.218 E1.29753
G1 X112.058 Y76.557 E1.31731
G1 X111.863 Y76.855 E1.33666
G1 X111.602 Y77.115 E1.35662
G1 X111.312 Y77.305 E1.37547
G1 X110.985 Y77.433 E1.39452
G1 X110.672 Y77.492 E1.41182
G1 X110.335 Y77.492 E1.43014
G1 X110.021 Y77.433 E1.44747
G1 X109.704 Y77.307 E1.46598
G1 X109.399 Y77.110 E1.48574
G1 X109.148 Y76.855 E1.50516
G1 X108.952 Y76.557 E1.52451
G1 X108.823 Y76.231 E1.54357
G1 X108.759 Y75.902 E1.56174
G1 X108.759 Y75.596 E1.57834
G1 X108.808 Y75.326 E1.59329
G1 X109.187 Y75.459 F7800.000
G1 X109.247 Y75.253 E1.60493 F600.000
G1 X109.374 Y75.008 E1.61992
G1 X109.547 Y74.797 E1.63473
G1 X109.767 Y74.618 E1.65014
G1 X110.008 Y74.494 E1.66485
G1 X110.260 Y74.422 E1.67910
G1 X110.505 Y74.400 E1.69247
G1 X110.750 Y74.422 E1.70584
G1 X111.000 Y74.493 E1.71992
G1 X111.244 Y74.620 E1.73490
G1 X111.460 Y74.793 E1.74990
G1 X111.636 Y75.008 E1.76499
G1 X111.763 Y75.253 E1.77998
G1 X111.831 Y75.503 E1.79402
G1 X111.856 Y75.750 E1.80754
G1 X111.831 Y75.995 E1.82091
G1 X111.763 Y76.245 E1.83494
G1 X111.636 Y76.490 E1.84993
G1 X111.460 Y76.705 E1.86502
G1 X111.245 Y76.878 E1.88003
G1 X111.000 Y77.005 E1.89501
G1 X110.750 Y77.076 E1.90909
G1 X110.506 Y77.101 E1.92244
G1 X110.260 Y77.076 E1.93585
G1 X110.008 Y77.004 E1.95010
G1 X109.767 Y76.880 E1.96482
G1 X109.547 Y76.701 E1.98023
G1 X109.374 Y76.490 E1.99504
G1 X109.247 Y76.245 E2.01003
G1 X109.178 Y76.004 E2.02365
G1 X109.155 Y75.750 E2.03746
G1 X109.174 Y75.518 E2.05013
G1 X109.571 Y75.573 F7800.000
G1 X109.620 Y75.399 E2.05994 F600.000
G1 X109.709 Y75.228 E2.07041
G1 X109.832 Y75.078 E2.08095
G1 X109.984 Y74.954 E2.09160
G1 X110.155 Y74.866 E2.10204
G1 X110.333 Y74.815 E2.11206
G1 X110.505 Y74.800 E2.12146
G1 X110.677 Y74.815 E2.13085
G1 X110.854 Y74.866 E2.14082
G1 X111.025 Y74.955 E2.15128
G1 X111.177 Y75.076 E2.16185
G1 X111.301 Y75.228 E2.17249
G1 X111.390 Y75.399 E2.18296
G1 X111.438 Y75.576 E2.19289
G1 X111.455 Y75.750 E2.20242
G1 X111.438 Y75.922 E2.21182
G1 X111.390 Y76.099 E2.22175
G1 X111.301 Y76.270 E2.23222
G1 X111.177 Y76.422 E2.24286
G1 X111.025 Y76.543 E2.25342
G1 X110.854 Y76.632 E2.26389
G1 X110.677 Y76.683 E2.27385
G1 X110.505 Y76.700 E2.28325
G1 X110.333 Y76.683 E2.29267
G1 X110.155 Y76.632 E2.30269
G1 X109.984 Y76.544 E2.31313
G1 X109.832 Y76.420 E2.32378
G1 X109.709 Y76.270 E2.33432
G1 X109.620 Y76.099 E2.34479
G1 X109.571 Y75.925 E2.35460
G1 X109.562 Y75.632 E2.37051
G1 X109.433 Y75.455 F7800.000
G1 F1800.000 E1.37051
G92 E0
G1 X91.257 Y75.751 F7800.000
G1 E1.00000 F1800.000
G1 X91.225 Y76.068 E1.01732 F600.000
G1 X91.137 Y76.390 E1.03545
G1 X90.971 Y76.709 E1.05497
G1 X90.743 Y76.988 E1.07452
G1 X90.464 Y77.212 E1.09395
G1 X90.146 Y77.378 E1.11345
G1 X89.823 Y77.470 E1.13165
G1 X89.506 Y77.502 E1.14896
G1 X89.181 Y77.470 E1.16668
G1 X88.864 Y77.378 E1.18459
G1 X88.704 Y77.307 E1.19411
G1 X88.399 Y77.110 E1.21387
G1 X88.148 Y76.855 E1.23328
G1 X87.952 Y76.557 E1.25264
G1 X87.823 Y76.231 E1.27169
G1 X87.759 Y75.902 E1.28987
G1 X87.759 Y75.596 E1.30647
G1 X87.823 Y75.267 E1.32467
G1 X87.952 Y74.941 E1.34372
G1 X88.148 Y74.643 E1.36308
G1 X88.399 Y74.388 E1.38249
G1 X88.704 Y74.191 E1.40225
G1 X89.022 Y74.066 E1.42077
G1 X89.351 Y74.004 E1.43899
G1 X89.657 Y74.004 E1.45560
G1 X89.985 Y74.065 E1.47372
G1 X90.312 Y74.193 E1.49277
G1 X90.602 Y74.383 E1.51161
G1 X90.862 Y74.643 E1.53157
G1 X91.058 Y74.941 E1.55093
G1 X91.191 Y75.280 E1.57072
G1 X91.253 Y75.691 E1.59327
G1 X90.854 Y75.711 F7800.000
G1 X90.831 Y75.995 E1.60874 F600.000
G1 X90.763 Y76.245 E1.62277
G1 X90.636 Y76.490 E1.63776
G1 X90.460 Y76.705 E1.65286
G1 X90.245 Y76.878 E1.66785
G1 X90.000 Y77.005 E1.68284
G1 X89.750 Y77.076 E1.69692
G1 X89.506 Y77.101 E1.71027
G1 X89.256 Y77.076 E1.72392
G1 X89.010 Y77.005 E1.73778
G1 X88.887 Y76.951 E1.74511
G1 X88.652 Y76.799 E1.76033
G1 X88.458 Y76.602 E1.77532
G1 X88.307 Y76.372 E1.79026
G1 X88.208 Y76.121 E1.80492
G1 X88.158 Y75.868 E1.81892
G1 X88.158 Y75.631 E1.83180
G1 X88.208 Y75.377 E1.84581
G1 X88.307 Y75.126 E1.86046
G1 X88.458 Y74.896 E1.87540
G1 X88.652 Y74.699 E1.89040
G1 X88.887 Y74.547 E1.90562
G1 X89.133 Y74.451 E1.91995
G1 X89.386 Y74.403 E1.93393
G1 X89.623 Y74.403 E1.94680
G1 X89.876 Y74.450 E1.96077
G1 X90.127 Y74.549 E1.97542
G1 X90.352 Y74.696 E1.99004
G1 X90.552 Y74.896 E2.00540
G1 X90.703 Y75.126 E2.02034
G1 X90.805 Y75.385 E2.03543
G1 X90.850 Y75.651 E2.05011
G1 X90.450 Y75.662 F7800.000
G1 X90.450 Y75.836 E2.05958 F600.000
G1 X90.418 Y76.008 E2.06908
G1 X90.348 Y76.187 E2.07948
G1 X90.242 Y76.349 E2.09000
G1 X90.102 Y76.489 E2.10075
G1 X89.942 Y76.594 E2.11117
G1 X89.766 Y76.663 E2.12141
G1 X89.591 Y76.695 E2.13106
G1 X89.417 Y76.695 E2.14052
G1 X89.244 Y76.662 E2.15011
G1 X89.070 Y76.594 E2.16025
G1 X88.905 Y76.488 E2.17092
G1 X88.768 Y76.349 E2.18150
G1 X88.662 Y76.187 E2.19202
G1 X88.593 Y76.011 E2.20227
G1 X88.557 Y75.833 E2.21211
G1 X88.557 Y75.665 E2.22125
G1 X88.593 Y75.487 E2.23109
G1 X88.662 Y75.311 E2.24134
G1 X88.768 Y75.149 E2.25186
G1 X88.905 Y75.010 E2.26244
G1 X89.070 Y74.904 E2.27311
G1 X89.244 Y74.836 E2.28326
G1 X89.420 Y74.802 E2.29300
G1 X89.588 Y74.802 E2.30214
G1 X89.766 Y74.835 E2.31195
G1 X89.942 Y74.904 E2.32220
G1 X90.102 Y75.009 E2.33262
G1 X90.242 Y75.149 E2.34337
G1 X90.348 Y75.311 E2.35389
G1 X90.390 Y75.399 E2.35915
G1 X90.442 Y75.603 E2.37055
G1 X90.607 Y75.738 F7800.000
G1 F1800.000 E1.37055
G92 E0
G1 X109.039 Y87.289 F7800.000
G1 E1.00000 F1800.000
G1 X109.261 Y87.016 E1.01907 F600.000
G1 X109.558 Y86.772 E1.03997
G1 X109.849 Y86.626 E1.05762
G1 X110.188 Y86.528 E1.07677
G1 X110.506 Y86.496 E1.09413
G1 X110.823 Y86.528 E1.11147
G1 X111.157 Y86.624 E1.13033
G1 X111.455 Y86.775 E1.14847
G1 X111.743 Y87.010 E1.16864
G1 X111.971 Y87.289 E1.18818
G1 X112.137 Y87.611 E1.20787
G1 X112.225 Y87.930 E1.22582
G1 X112.257 Y88.247 E1.24313
G1 X112.225 Y88.568 E1.26068
G1 X112.137 Y88.887 E1.27862
G1 X111.971 Y89.209 E1.29831
G1 X111.743 Y89.488 E1.31785
G1 X111.455 Y89.723 E1.33802
G1 X111.157 Y89.874 E1.35617
G1 X110.823 Y89.970 E1.37504
G1 X110.506 Y90.002 E1.39236
G1 X110.188 Y89.970 E1.40972
G1 X109.849 Y89.872 E1.42887
G1 X109.558 Y89.726 E1.44653
G1 X109.261 Y89.482 E1.46742
G1 X109.039 Y89.209 E1.48650
G1 X108.873 Y88.887 E1.50618
G1 X108.785 Y88.582 E1.52343
G1 X108.755 Y88.247 E1.54166
G1 X108.785 Y87.916 E1.55972
G1 X108.873 Y87.611 E1.57698
G1 X109.009 Y87.341 E1.59341
G1 X109.355 Y87.542 F7800.000
G1 X109.458 Y87.396 E1.60308 F600.000
G1 X109.647 Y87.204 E1.61774
G1 X109.893 Y87.047 E1.63357
G1 X110.132 Y86.950 E1.64756
G1 X110.505 Y86.897 E1.66806
G1 X110.750 Y86.922 E1.68143
G1 X111.007 Y86.995 E1.69591
G1 X111.239 Y87.113 E1.71006
G1 X111.460 Y87.293 E1.72553
G1 X111.636 Y87.508 E1.74062
G1 X111.763 Y87.756 E1.75575
G1 X111.831 Y88.003 E1.76963
G1 X111.856 Y88.247 E1.78299
G1 X111.831 Y88.495 E1.79653
G1 X111.763 Y88.742 E1.81040
G1 X111.636 Y88.990 E1.82554
G1 X111.460 Y89.205 E1.84063
G1 X111.239 Y89.385 E1.85610
G1 X111.007 Y89.503 E1.87025
G1 X110.750 Y89.576 E1.88473
G1 X110.505 Y89.601 E1.89809
G1 X110.260 Y89.576 E1.91148
G1 X110.001 Y89.502 E1.92613
G1 X109.772 Y89.387 E1.94003
G1 X109.547 Y89.201 E1.95590
G1 X109.374 Y88.990 E1.97071
G1 X109.247 Y88.742 E1.98584
G1 X109.178 Y88.504 E1.99931
G1 X109.155 Y88.248 E2.01326
G1 X109.178 Y87.995 E2.02706
G1 X109.247 Y87.756 E2.04054
G1 X109.325 Y87.594 E2.05032
G1 X109.661 Y87.812 F7800.000
G1 X109.768 Y87.649 E2.06090 F600.000
G1 X109.903 Y87.512 E2.07137
G1 X110.072 Y87.405 E2.08220
G1 X110.242 Y87.335 E2.09219
G1 X110.417 Y87.303 E2.10184
G1 X110.591 Y87.303 E2.11132
G1 X110.766 Y87.335 E2.12097
G1 X110.940 Y87.406 E2.13114
G1 X111.104 Y87.511 E2.14173
G1 X111.242 Y87.649 E2.15236
G1 X111.349 Y87.812 E2.16295
G1 X111.418 Y87.989 E2.17324
G1 X111.450 Y88.162 E2.18279
G1 X111.450 Y88.336 E2.19225
G1 X111.418 Y88.509 E2.20181
G1 X111.349 Y88.686 E2.21210
G1 X111.242 Y88.849 E2.22268
G1 X111.104 Y88.987 E2.23332
G1 X110.940 Y89.092 E2.24390
G1 X110.766 Y89.163 E2.25407
G1 X110.591 Y89.195 E2.26372
G1 X110.417 Y89.195 E2.27321
G1 X110.242 Y89.163 E2.28285
G1 X110.072 Y89.093 E2.29284
G1 X109.986 Y89.048 E2.29810
G1 X109.832 Y88.920 E2.30894
G1 X109.709 Y88.770 E2.31949
G1 X109.620 Y88.597 E2.33007
G1 X109.571 Y88.425 E2.33976
G1 X109.555 Y88.248 E2.34942
G1 X109.571 Y88.073 E2.35896
G1 X109.636 Y87.867 E2.37070
G1 X109.559 Y87.646 F7800.000
G1 F1800.000 E1.37070
G92 E0
G1 X91.257 Y88.247 F7800.000
G1 E1.00000 F1800.000
G1 X91.225 Y88.568 E1.01754 F600.000
G1 X91.137 Y88.887 E1.03548
G1 X90.971 Y89.209 E1.05518
G1 X90.743 Y89.488 E1.07472
G1 X90.455 Y89.722 E1.09488
G1 X90.157 Y89.874 E1.11303
G1 X89.823 Y89.970 E1.13189
G1 X89.506 Y90.002 E1.14922
G1 X89.181 Y89.970 E1.16692
G1 X88.853 Y89.874 E1.18549
G1 X88.558 Y89.726 E1.20340
G1 X88.391 Y89.602 E1.21470
G1 X88.147 Y89.355 E1.23355
G1 X87.949 Y89.052 E1.25321
G1 X87.824 Y88.735 E1.27173
G1 X87.759 Y88.402 E1.29015
G1 X87.759 Y88.096 E1.30677
G1 X87.824 Y87.763 E1.32516
G1 X87.949 Y87.446 E1.34370
G1 X88.147 Y87.143 E1.36334
G1 X88.391 Y86.896 E1.38219
G1 X88.558 Y86.772 E1.39349
G1 X88.853 Y86.624 E1.41139
G1 X89.022 Y86.566 E1.42109
G1 X89.337 Y86.506 E1.43849
G1 X89.672 Y86.506 E1.45670
G1 X89.985 Y86.565 E1.47401
G1 X90.302 Y86.692 E1.49252
G1 X90.455 Y86.775 E1.50200
G1 X90.610 Y86.891 E1.51248
G1 X90.862 Y87.143 E1.53187
G1 X91.061 Y87.446 E1.55152
G1 X91.190 Y87.776 E1.57079
G1 X91.253 Y88.187 E1.59336
G1 X90.854 Y88.208 F7800.000
G1 X90.831 Y88.495 E1.60900 F600.000
G1 X90.763 Y88.742 E1.62288
G1 X90.636 Y88.990 E1.63801
G1 X90.460 Y89.205 E1.65310
G1 X90.239 Y89.385 E1.66856
G1 X90.007 Y89.503 E1.68272
G1 X89.750 Y89.576 E1.69720
G1 X89.505 Y89.601 E1.71057
G1 X89.256 Y89.576 E1.72420
G1 X89.003 Y89.503 E1.73846
G1 X88.772 Y89.387 E1.75251
G1 X88.647 Y89.294 E1.76097
G1 X88.458 Y89.102 E1.77562
G1 X88.305 Y88.869 E1.79074
G1 X88.208 Y88.623 E1.80507
G1 X88.158 Y88.367 E1.81923
G1 X88.158 Y88.130 E1.83211
G1 X88.208 Y87.875 E1.84624
G1 X88.305 Y87.629 E1.86059
G1 X88.458 Y87.396 E1.87570
G1 X88.647 Y87.204 E1.89036
G1 X88.772 Y87.111 E1.89881
G1 X89.133 Y86.951 E1.92024
G1 X89.377 Y86.905 E1.93373
G1 X89.632 Y86.905 E1.94756
G1 X89.876 Y86.950 E1.96104
G1 X90.121 Y87.049 E1.97538
G1 X90.357 Y87.201 E1.99063
G1 X90.552 Y87.396 E2.00564
G1 X90.705 Y87.629 E2.02076
G1 X90.804 Y87.883 E2.03554
G1 X90.850 Y88.148 E2.05019
G1 X90.450 Y88.162 F7800.000
G1 X90.450 Y88.336 E2.05966 F600.000
G1 X90.418 Y88.509 E2.06922
G1 X90.349 Y88.686 E2.07951
G1 X90.242 Y88.849 E2.09009
G1 X90.104 Y88.987 E2.10072
G1 X89.940 Y89.092 E2.11131
G1 X89.766 Y89.163 E2.12148
G1 X89.591 Y89.195 E2.13113
G1 X89.417 Y89.195 E2.14059
G1 X89.244 Y89.162 E2.15017
G1 X89.072 Y89.093 E2.16024
G1 X88.903 Y88.986 E2.17108
G1 X88.768 Y88.849 E2.18155
G1 X88.661 Y88.686 E2.19213
G1 X88.593 Y88.512 E2.20227
G1 X88.557 Y88.333 E2.21216
G1 X88.557 Y88.165 E2.22130
G1 X88.593 Y87.986 E2.23118
G1 X88.661 Y87.812 E2.24133
G1 X88.768 Y87.649 E2.25191
G1 X88.986 Y87.450 E2.26794
G1 X89.244 Y87.336 E2.28325
G1 X89.417 Y87.303 E2.29283
G1 X89.591 Y87.303 E2.30229
G1 X89.766 Y87.335 E2.31194
G1 X89.940 Y87.406 E2.32211
G1 X90.104 Y87.511 E2.33270
G1 X90.242 Y87.649 E2.34333
G1 X90.349 Y87.812 E2.35391
G1 X90.442 Y88.102 E2.37045
G1 X90.609 Y88.234 F7800.000
G1 X93.601 Y91.294 F7800.000
G1 X93.601 Y74.204 E3.29843 F600.000
G1 X93.767 Y73.137 E3.35705
G1 X94.271 Y72.133 E3.41807
G1 X95.056 Y71.333 E3.47890
G1 X96.049 Y70.819 E3.53961
G1 X97.763 Y70.544 E3.63389
G1 X97.763 Y70.650 E3.63963
G1 X102.905 Y70.650 E3.91880
G1 X103.959 Y70.819 E3.97678
G1 X104.954 Y71.333 E4.03759
G1 X105.739 Y72.133 E4.09846
G1 X106.241 Y73.137 E4.15940
G1 X106.409 Y74.203 E4.21801
G1 X106.409 Y91.295 E5.14606
G1 X106.241 Y92.361 E5.20466
G1 X105.739 Y93.365 E5.26560
G1 X104.954 Y94.165 E5.32648
G1 X103.960 Y94.679 E5.38725
G1 X102.905 Y94.850 E5.44524
G1 X97.103 Y94.850 E5.76032
G1 X96.048 Y94.679 E5.81833
G1 X95.056 Y94.165 E5.87901
G1 X94.271 Y93.365 E5.93983
G1 X93.767 Y92.361 E6.00085
G1 X93.610 Y91.354 E6.05622
G1 X94.001 Y91.263 F7800.000
G1 X94.001 Y74.235 E6.98085 F420.000
G1 X94.152 Y73.260 E7.03439
G1 X94.600 Y72.368 E7.08859
G1 X95.297 Y71.659 E7.14255
G1 X96.176 Y71.204 E7.19631
G1 X97.363 Y71.013 E7.26161
G1 X97.363 Y71.050 E7.26359
G1 X102.873 Y71.050 E7.56276
G1 X103.832 Y71.204 E7.61552
G1 X104.713 Y71.659 E7.66937
G1 X105.410 Y72.368 E7.72335
G1 X105.856 Y73.260 E7.77749
G1 X106.009 Y74.234 E7.83103
G1 X106.009 Y91.264 E8.75569
G1 X105.856 Y92.238 E8.80923
G1 X105.410 Y93.130 E8.86338
G1 X104.713 Y93.839 E8.91736
G1 X103.833 Y94.294 E8.97119
G1 X102.873 Y94.450 E9.02397
G1 X97.135 Y94.450 E9.33554
G1 X96.175 Y94.294 E9.38832
G1 X95.297 Y93.839 E9.44206
G1 X94.600 Y93.130 E9.49603
G1 X94.152 Y92.238 E9.55023
G1 X94.010 Y91.323 E9.60051
G1 X93.645 Y91.081 F7800.000
G1 F1800.000 E8.60051
G92 E0
G1 X112.037 Y97.750 F7800.000
G1 E1.00000 F1800.000
G1 X113.391 Y95.364 E1.14896 F600.000
G1 X116.130 Y95.364 E1.29768
G1 X117.483 Y97.750 E1.44664
G1 X116.129 Y100.134 E1.59549
G1 X113.391 Y100.134 E1.74417
G1 X112.067 Y97.803 E1.88975
G1 X112.497 Y97.750 F7800.000
G1 X113.623 Y95.764 E2.01373 F600.000
G1 X115.897 Y95.764 E2.13715
G1 X117.023 Y97.750 E2.26114
G1 X115.896 Y99.734 E2.38501
G1 X113.624 Y99.734 E2.50840
G1 X112.527 Y97.802 E2.62902
G1 X112.957 Y97.750 F7800.000
G1 X113.856 Y96.164 E2.72802 F600.000
G1 X115.664 Y96.164 E2.82614
G1 X116.563 Y97.750 E2.92515
G1 X115.663 Y99.334 E3.02405
G1 X113.857 Y99.334 E3.12216
G1 X112.987 Y97.802 E3.21781
G1 X112.650 Y97.494 F7800.000
G1 X87.973 Y97.750 F7800.000
G1 X86.619 Y100.134 E3.36665 F600.000
G1 X83.882 Y100.134 E3.51529
G1 X82.524 Y97.750 E3.66423
G1 X83.881 Y95.364 E3.81328
