; generated by Slic3r 1.1.7 on 2015-03-18 at 14:01:44

; perimeters extrusion width = 0.40mm
; infill extrusion width = 0.42mm
; solid infill extrusion width = 0.42mm
; top infill extrusion width = 0.42mm
; support material extrusion width = 0.40mm

G21 ; set units to millimeters
M104 S190 ; set temperature
G28 ; home all axes
G1 Z5 F5000 ; lift nozzle
M109 S190 ; wait for temperature to be reached
G90 ; use absolute coordinates
G92 E0
M82 ; use absolute distances for extrusion
M106 S255
G1 F1800.000 E-1.00000
G92 E0
G1 Z0.300 F7800.000
G1 X73.810 Y87.347 F7800.000
G1 E1.00000 F1800.000
G1 X74.944 Y86.449 E1.07856 F1200.000
G1 X82.822 Y81.547 E1.58239
G1 X84.916 Y80.712 E1.70477
G1 X86.203 Y80.581 E1.77505
G1 X99.626 Y80.581 E2.50388
G1 X101.259 Y80.793 E2.59330 F1200.000
G1 X118.750 Y85.409 E3.57553
G1 X120.036 Y85.902 E3.65031
G1 X120.594 Y86.188 E3.68437
G1 X122.200 Y87.358 E3.79226
G1 X122.643 Y87.800 E3.82621
G1 X123.812 Y89.406 E3.93410
G1 X124.099 Y89.964 E3.96816
G1 X124.727 Y91.897 E4.07854
G1 X124.899 Y93.499 E4.16601
G1 X124.824 Y110.478 E5.08796
G1 X124.728 Y111.098 E5.12202
G1 X124.094 Y113.046 E5.23325
G1 X123.808 Y113.602 E5.26720
G1 X122.653 Y115.190 E5.37383
G1 X122.211 Y115.634 E5.40785
G1 X120.742 Y116.736 E5.50754
G1 X98.949 Y128.636 E6.85579
G1 X95.882 Y129.419 E7.02767
G1 X91.407 Y129.419 E7.27062
G1 X89.189 Y129.022 E7.39300
G1 X87.995 Y128.433 E7.46529
G1 X87.055 Y127.832 E7.52589
G1 X78.445 Y121.799 E8.09672
G1 X76.925 Y120.298 E8.21271
G1 X72.182 Y113.586 E8.65896
G1 X71.898 Y113.030 E8.69286
G1 X71.272 Y111.098 E8.80311
G1 X71.101 Y109.499 E8.89046
G1 X71.177 Y92.513 E9.81275
G1 X71.273 Y91.897 E9.84660
G1 X71.893 Y89.980 E9.95602
G1 X72.177 Y89.422 E9.99002
G1 X73.366 Y87.789 E10.09966
G1 X73.767 Y87.390 E10.13043
G1 F1800.000 E9.13043
G92 E0
G1 X116.033 Y110.495 F7800.000
G1 E1.00000 F1800.000
G1 X114.967 Y110.495 E1.05792 F600.000
G1 X114.101 Y109.868 E1.11595
G1 X113.770 Y108.851 E1.17402
G1 X114.100 Y107.832 E1.23217
G1 X114.966 Y107.203 E1.29029
G1 X116.034 Y107.203 E1.34829
G1 X116.690 Y107.680 E1.39234
G1 X116.900 Y107.832 E1.40640 F600.000
G1 X117.230 Y108.851 E1.46455
G1 X116.899 Y109.868 E1.52263
G1 X116.082 Y110.460 E1.57740
G1 X115.904 Y110.095 F7800.000
G1 X115.096 Y110.095 E1.62125 F420.000
G1 X114.441 Y109.621 E1.66517
G1 X114.191 Y108.851 E1.70911
G1 X114.441 Y108.079 E1.75316
G1 X115.096 Y107.603 E1.79714
G1 X115.904 Y107.603 E1.84102 F420.000
G1 X116.559 Y108.079 E1.88501
G1 X116.809 Y108.851 E1.92905
G1 X116.559 Y109.621 E1.97300
G1 X115.952 Y110.060 E2.01366
G1 F1800.000 E1.01366
G92 E0
G1 X115.013 Y107.212 F7800.000
G1 X115.904 Y95.795 F7800.000
G1 E1.00000 F1800.000
G1 X114.967 Y95.795 E1.05088 F600.000
G1 X114.101 Y95.168 E1.10891
G1 X113.770 Y94.151 E1.16699
G1 X114.100 Y93.132 E1.22514
G1 X114.966 Y92.503 E1.28325
G1 X116.034 Y92.503 E1.34125
G1 X116.690 Y92.980 E1.38531
G1 X116.900 Y93.132 E1.39937 F600.000
G1 X117.230 Y94.151 E1.45752
G1 X116.899 Y95.168 E1.51559
G1 X116.033 Y95.795 E1.57362
G1 X115.964 Y95.795 E1.57740
G1 X115.904 Y95.395 F7800.000
G1 X115.096 Y95.395 E1.62125 F420.000
G1 X114.441 Y94.921 E1.66517
G1 X114.191 Y94.151 E1.70911
G1 X114.441 Y93.379 E1.75316
G1 X115.096 Y92.903 E1.79714
G1 X115.904 Y92.903 E1.84102 F420.000
G1 X116.559 Y93.379 E1.88501
G1 X116.809 Y94.151 E1.92905
G1 X116.559 Y94.921 E1.97300
G1 X115.952 Y95.360 E2.01366
G1 F1800.000 E1.01366
G92 E0
G1 X115.013 Y92.512 F7800.000
G1 X111.999 Y95.395 F7800.000
G1 E1.00000 F1800.000
G1 X111.999 Y107.929 E1.68054 F600.000
G1 X111.914 Y108.471 E1.71037
G1 X111.628 Y109.032 E1.74459
G1 X111.182 Y109.478 E1.77878
G1 X110.624 Y109.763 E1.81282
G1 X110.082 Y109.851 E1.84267
G1 X106.218 Y109.851 E2.05244
G1 X105.676 Y109.763 E2.08228
G1 X105.118 Y109.478 E2.11632
G1 X104.672 Y109.033 E2.15051
G1 X104.387 Y108.474 E2.18455
G1 X104.299 Y107.932 E2.21439
G1 X104.299 Y95.071 E2.91271
G1 X104.387 Y94.526 E2.94266
G1 X104.672 Y93.968 E2.97673
G1 X105.118 Y93.522 E3.01092
G1 X105.679 Y93.236 E3.04514
G1 X106.222 Y93.151 E3.07497
G1 X110.078 Y93.151 E3.28439
G1 X110.443 Y93.208 E3.30442
G1 X110.621 Y93.236 E3.31422 F600.000
G1 X111.182 Y93.522 E3.34844
G1 X111.628 Y93.967 E3.38263
G1 X111.915 Y94.529 E3.41688
G1 X111.999 Y95.074 E3.44681
G1 X111.999 Y95.335 E3.46098
G1 X111.599 Y95.395 F7800.000
G1 X111.599 Y107.898 E4.13984 F600.000
G1 X111.529 Y108.346 E4.16451
G1 X111.300 Y108.794 E4.19182
G1 X110.944 Y109.150 E4.21915
G1 X110.498 Y109.378 E4.24636
G1 X110.049 Y109.451 E4.27104
G1 X106.251 Y109.451 E4.47731
G1 X105.802 Y109.378 E4.50199
G1 X105.356 Y109.150 E4.52919
G1 X105.000 Y108.794 E4.55653
G1 X104.772 Y108.348 E4.58373
G1 X104.699 Y107.899 E4.60842
G1 X104.699 Y95.103 E5.30324
G1 X104.772 Y94.652 E5.32803
G1 X105.000 Y94.206 E5.35525
G1 X105.356 Y93.850 E5.38258
G1 X105.804 Y93.621 E5.40990
G1 X106.253 Y93.551 E5.43456
G1 X110.047 Y93.551 E5.64062 F600.000
G1 X110.496 Y93.621 E5.66529
G1 X110.944 Y93.850 E5.69260
G1 X111.300 Y94.206 E5.71993
G1 X111.529 Y94.654 E5.74726
G1 X111.599 Y95.105 E5.77203
G1 X111.599 Y95.335 E5.78453
G1 X111.199 Y95.395 F7800.000
G1 X111.199 Y107.866 E6.46171 F420.000
G1 X111.144 Y108.221 E6.48122
G1 X110.973 Y108.556 E6.50162
G1 X110.706 Y108.823 E6.52210
G1 X110.372 Y108.993 E6.54247
G1 X110.017 Y109.051 E6.56199
G1 X106.283 Y109.051 E6.76475
G1 X105.928 Y108.993 E6.78427
G1 X105.594 Y108.823 E6.80464
G1 X105.327 Y108.556 E6.82512
G1 X105.157 Y108.222 E6.84549
G1 X105.099 Y107.867 E6.86501
G1 X105.099 Y95.135 E7.55634
G1 X105.157 Y94.778 E7.57597
G1 X105.327 Y94.444 E7.59634
G1 X105.594 Y94.177 E7.61682
G1 X105.929 Y94.006 E7.63722
G1 X106.284 Y93.951 E7.65673
G1 X110.016 Y93.951 E7.85942
G1 X110.320 Y93.998 E7.87609
G1 X110.371 Y94.006 E7.87893 F420.000
G1 X110.706 Y94.177 E7.89933
G1 X110.973 Y94.444 E7.91981
G1 X111.144 Y94.779 E7.94022
G1 X111.199 Y95.136 E7.95983
G1 X111.199 Y95.335 E7.97066
G1 X110.314 Y93.946 F7800.000
G1 F1800.000 E6.97066
G92 E0
G1 X101.699 Y95.395 F7800.000
G1 E1.00000 F1800.000
G1 X101.699 Y108.295 E1.70045 F600.000
G1 X101.629 Y108.746 E1.72523
G1 X101.400 Y109.194 E1.75256
G1 X101.044 Y109.550 E1.77989
G1 X100.596 Y109.779 E1.80722
G1 X100.145 Y109.849 E1.83199
G1 X85.253 Y109.849 E2.64063
G1 X84.804 Y109.779 E2.66530
G1 X84.356 Y109.550 E2.69261
G1 X84.000 Y109.194 E2.71995
G1 X83.772 Y108.748 E2.74717
G1 X83.699 Y108.297 E2.77196
G1 X83.699 Y94.701 E3.51022
G1 X83.772 Y94.252 E3.53490
G1 X84.000 Y93.806 E3.56211
G1 X84.356 Y93.450 E3.58944
G1 X84.802 Y93.222 E3.61665
G1 X85.251 Y93.149 E3.64133
G1 X100.147 Y93.149 E4.45018
G1 X100.484 Y93.203 E4.46873
G1 X100.598 Y93.222 E4.47497 F600.000
G1 X101.044 Y93.450 E4.50219
G1 X101.400 Y93.806 E4.52952
G1 X101.629 Y94.254 E4.55684
G1 X101.699 Y94.703 E4.58150
G1 X101.699 Y95.335 E4.61585
G1 X101.299 Y95.395 F7800.000
G1 X101.299 Y108.264 E5.31463 F420.000
G1 X101.244 Y108.621 E5.33424
G1 X101.073 Y108.956 E5.35465
G1 X100.806 Y109.223 E5.37513
G1 X100.471 Y109.394 E5.39554
G1 X100.114 Y109.449 E5.41515
G1 X85.284 Y109.449 E6.22044
G1 X84.929 Y109.394 E6.23994
G1 X84.594 Y109.223 E6.26035
G1 X84.327 Y108.956 E6.28082
G1 X84.157 Y108.622 E6.30120
G1 X84.099 Y108.265 E6.32083
G1 X84.099 Y94.733 E7.05560
G1 X84.157 Y94.378 E7.07512
G1 X84.327 Y94.044 E7.09549
G1 X84.594 Y93.777 E7.11596
G1 X84.928 Y93.607 E7.13633
G1 X85.283 Y93.549 E7.15586
G1 X100.115 Y93.549 E7.96121 F420.000
G1 X100.472 Y93.607 E7.98084
G1 X100.806 Y93.777 E8.00122
G1 X101.073 Y94.044 E8.02169
G1 X101.244 Y94.379 E8.04210
G1 X101.299 Y94.734 E8.06160
G1 X101.299 Y95.335 E8.09426
G1 F1800.000 E7.09426
G92 E0
G1 X85.091 Y93.198 F7800.000
G1 X82.232 Y94.151 F7800.000
G1 E1.00000 F1800.000
G1 X81.899 Y95.168 E1.05813 F600.000
G1 X81.036 Y95.795 E1.11602
G1 X79.965 Y95.795 E1.17419
G1 X79.099 Y95.168 E1.23222
G1 X78.742 Y94.071 E1.29487
G1 X78.794 Y94.071 E1.29770
G1 X79.098 Y93.132 E1.35127
G1 X79.964 Y92.503 E1.40939
G1 X81.037 Y92.503 E1.46764
G1 X81.691 Y92.981 E1.51164
G1 X81.899 Y93.132 E1.52561 F600.000
G1 X82.214 Y94.094 E1.58056
G1 X81.811 Y94.151 F7800.000
G1 X81.559 Y94.921 E1.62454 F420.000
G1 X80.906 Y95.395 E1.66836
G1 X80.094 Y95.395 E1.71243
G1 X79.439 Y94.921 E1.75635
G1 X79.189 Y94.151 E1.80030
G1 X79.439 Y93.379 E1.84434
G1 X80.094 Y92.903 E1.88833
G1 X80.906 Y92.903 E1.93243 F420.000
G1 X81.559 Y93.379 E1.97632
G1 X81.793 Y94.094 E2.01714
G1 F1800.000 E1.01714
G92 E0
G1 X79.931 Y92.538 F7800.000
G1 X81.037 Y107.203 F7800.000
G1 E1.00000 F1800.000
G1 X81.691 Y107.681 E1.04401 F600.000
G1 X81.899 Y107.832 E1.05797 F600.000
G1 X82.232 Y108.851 E1.11618
G1 X81.899 Y109.868 E1.17431
G1 X81.036 Y110.495 E1.23220
G1 X79.965 Y110.495 E1.29036
G1 X79.099 Y109.868 E1.34839
G1 X78.742 Y108.771 E1.41105
G1 X78.794 Y108.771 E1.41388
G1 X79.098 Y107.832 E1.46745
G1 X79.964 Y107.203 E1.52556
G1 X80.977 Y107.203 E1.58056
G1 X80.906 Y107.603 F7800.000
G1 X81.559 Y108.079 E1.62444 F420.000
G1 X81.811 Y108.851 E1.66852
G1 X81.559 Y109.621 E1.71251
G1 X80.906 Y110.095 E1.75632
G1 X80.094 Y110.095 E1.80040
G1 X79.439 Y109.621 E1.84432
G1 X79.189 Y108.851 E1.88826
G1 X79.439 Y108.079 E1.93231
G1 X80.094 Y107.603 E1.97629
G1 X80.846 Y107.603 E2.01714 F420.000
G1 X80.094 Y107.203 F7800.000
G1 X86.321 Y110.249 F7800.000
G1 X100.321 Y110.249 E2.77731 F600.000
G1 X100.321 Y114.499 E3.00808
G1 X86.321 Y114.499 E3.76825
G1 X86.321 Y110.309 E3.99576
G1 X100.457 Y110.206 F7800.000
G1 X100.721 Y110.165 E4.01028 F600.000
G1 X101.282 Y109.878 E4.04453
G1 X101.728 Y109.432 E4.07872
G1 X102.015 Y108.871 E4.11297
G1 X102.099 Y108.326 E4.14290
G1 X102.099 Y94.672 E4.88431
G1 X102.014 Y94.129 E4.91414
G1 X101.728 Y93.568 E4.94836
G1 X101.282 Y93.122 E4.98255
G1 X100.724 Y92.837 E5.01662
G1 X100.467 Y92.795 E5.03073
G1 X100.491 Y92.501 E5.04677
G1 X113.913 Y92.501 E5.77557
G1 X113.985 Y92.722 E5.78819
G1 X113.760 Y92.885 E5.80327
G1 X113.350 Y94.151 E5.87553
G1 X113.761 Y95.416 E5.94774
G1 X114.837 Y96.195 E6.01988
G1 X116.163 Y96.195 E6.09187
G1 X117.499 Y95.228 E6.18142
G1 X117.499 Y107.774 E6.86262
G1 X116.164 Y106.803 E6.95224
G1 X114.836 Y106.803 E7.02437
G1 X113.760 Y107.585 E7.09660
G1 X113.350 Y108.851 E7.16886
G1 X113.761 Y110.116 E7.24107
G1 X113.987 Y110.280 E7.25621
G1 X113.915 Y110.501 E7.26885
G1 X100.479 Y110.501 E7.99838
G1 X100.461 Y110.265 E8.01122
G1 X84.944 Y110.206 F7800.000
G1 X84.921 Y110.501 E8.02730 F600.000
G1 X82.085 Y110.501 E8.18130
G1 X82.013 Y110.280 E8.19393
G1 X82.238 Y110.116 E8.20906
G1 X82.653 Y108.851 E8.28133
G1 X82.239 Y107.585 E8.35366
G1 X81.167 Y106.803 E8.42572
G1 X79.834 Y106.803 E8.49812
G1 X78.501 Y107.772 E8.58760
G1 X78.501 Y105.501 E8.71093
G1 X80.279 Y105.501 E8.80748
G1 X80.761 Y105.423 E8.83398
G1 X81.266 Y105.166 E8.86475
G1 X81.666 Y104.766 E8.89549
G1 X81.923 Y104.262 E8.92622
G1 X82.001 Y103.782 E8.95260
G1 X82.001 Y99.221 E9.20027
G1 X81.923 Y98.737 E9.22686
G1 X81.666 Y98.237 E9.25737
G1 X81.269 Y97.835 E9.28809
G1 X80.757 Y97.575 E9.31924
G1 X80.275 Y97.501 E9.34572
G1 X78.501 Y97.501 E9.44206
G1 X78.501 Y95.230 E9.56539
G1 X79.835 Y96.195 E9.65481
G1 X81.166 Y96.195 E9.72706
G1 X82.238 Y95.416 E9.79903
G1 X82.653 Y94.151 E9.87130
G1 X82.239 Y92.885 E9.94363
G1 X82.015 Y92.722 E9.95871
G1 X82.087 Y92.501 E9.97131
G1 X84.910 Y92.501 E10.12458
G1 X84.933 Y92.795 E10.14061
G1 X84.676 Y92.837 E10.15477
G1 X84.118 Y93.122 E10.18881
G1 X83.672 Y93.568 E10.22300
G1 X83.387 Y94.126 E10.25704
G1 X83.299 Y94.668 E10.28689
G1 X83.299 Y108.329 E11.02864
G1 X83.387 Y108.874 E11.05859
G1 X83.672 Y109.432 E11.09266
G1 X84.118 Y109.878 E11.12685
G1 X84.679 Y110.164 E11.16107
G1 X84.885 Y110.196 E11.17238
G1 X85.921 Y110.901 F7800.000
G1 X79.549 Y110.901 E11.51836 F600.000
G1 X79.069 Y110.824 E11.54477
G1 X78.682 Y110.627 E11.56835
G1 X78.372 Y110.318 E11.59211
G1 X78.175 Y109.932 E11.61563
G1 X78.101 Y109.453 E11.64196
G1 X78.101 Y105.101 E11.87825
G1 X80.247 Y105.101 E11.99478
G1 X80.635 Y105.038 E12.01613
G1 X81.028 Y104.839 E12.04005
G1 X81.339 Y104.528 E12.06390
G1 X81.538 Y104.136 E12.08780
G1 X81.601 Y103.750 E12.10904
G1 X81.601 Y99.253 E12.35321
G1 X81.538 Y98.864 E12.37462
G1 X81.339 Y98.475 E12.39835
G1 X81.030 Y98.162 E12.42222
G1 X80.633 Y97.961 E12.44636
G1 X80.245 Y97.901 E12.46770
G1 X78.101 Y97.901 E12.58410
G1 X78.101 Y93.545 E12.82060
G1 X78.175 Y93.070 E12.84673
G1 X78.372 Y92.683 E12.87033
G1 X78.682 Y92.374 E12.89408
G1 X79.069 Y92.175 E12.91769
G1 X79.547 Y92.101 E12.94397
G1 X116.455 Y92.101 E14.94797
G1 X116.929 Y92.175 E14.97405
G1 X117.317 Y92.374 E14.99774
G1 X117.626 Y92.683 E15.02144
G1 X117.825 Y93.071 E15.04512
G1 X117.899 Y93.545 E15.07121
G1 X117.899 Y109.453 E15.93495
G1 X117.825 Y109.931 E15.96122
G1 X117.626 Y110.318 E15.98483
G1 X117.318 Y110.627 E16.00854
G1 X116.929 Y110.824 E16.03219
G1 X116.453 Y110.901 E16.05841
G1 X100.721 Y110.901 E16.91261
G1 X100.721 Y114.899 E17.12969
G1 X85.921 Y114.899 E17.93330
G1 X85.921 Y110.961 E18.14713
G1 X85.521 Y111.301 F7800.000
G1 X79.517 Y111.301 E18.47313 F420.000
G1 X78.944 Y111.209 E18.50467
G1 X78.444 Y110.955 E18.53509
G1 X78.045 Y110.556 E18.56574
G1 X77.790 Y110.057 E18.59618
G1 X77.701 Y109.484 E18.62767
G1 X77.701 Y105.070 E18.86732
G1 X77.737 Y104.898 E18.87688
G1 X77.802 Y104.800 E18.88322
G1 X77.897 Y104.736 E18.88946
G1 X78.083 Y104.701 E18.89974
G1 X80.215 Y104.701 E19.01551
G1 X80.510 Y104.653 E19.03172
G1 X80.790 Y104.511 E19.04880
G1 X81.011 Y104.290 E19.06576
G1 X81.153 Y104.010 E19.08282
G1 X81.201 Y103.717 E19.09892
G1 X81.201 Y99.285 E19.33958
G1 X81.153 Y98.990 E19.35582
G1 X81.011 Y98.712 E19.37276
G1 X80.791 Y98.489 E19.38978
G1 X80.509 Y98.346 E19.40692
G1 X80.214 Y98.301 E19.42312
G1 X78.080 Y98.301 E19.53902
G1 X77.898 Y98.263 E19.54911
G1 X77.801 Y98.199 E19.55541
G1 X77.737 Y98.102 E19.56172
G1 X77.701 Y97.932 E19.57115
G1 X77.701 Y93.514 E19.81102
G1 X77.790 Y92.945 E19.84230
G1 X78.045 Y92.444 E19.87283
G1 X78.444 Y92.047 E19.90342
G1 X78.944 Y91.790 E19.93393
G1 X79.516 Y91.701 E19.96540
G1 X116.486 Y91.701 E21.97275
G1 X117.054 Y91.790 E22.00401
G1 X117.556 Y92.047 E22.03460
G1 X117.934 Y92.425 E22.06365
G1 X118.210 Y92.946 E22.09565
G1 X118.299 Y93.514 E22.12692
G1 X118.299 Y109.484 E22.99401
G1 X118.210 Y110.056 E23.02548
G1 X117.953 Y110.556 E23.05598
G1 X117.556 Y110.955 E23.08656
G1 X117.054 Y111.209 E23.11708
G1 X116.485 Y111.301 E23.14841
G1 X101.121 Y111.301 E23.98264
G1 X101.121 Y115.299 E24.19972
G1 X85.521 Y115.299 E25.04677
G1 X85.521 Y111.361 E25.26059
G1 X85.521 Y110.901 F7800.000
G1 X86.635 Y114.225 F7800.000
G1 X86.595 Y114.185 E25.26381 F1200.000
G1 X86.595 Y113.575 E25.29848
G1 X87.245 Y114.225 E25.35073
G1 X87.855 Y114.225 E25.38540
G1 X86.595 Y112.965 E25.48668
G1 X86.595 Y112.356 E25.52135
G1 X88.464 Y114.225 E25.67167
G1 X89.074 Y114.225 E25.70634
G1 X86.595 Y111.746 E25.90568
G1 X86.595 Y111.136 E25.94035
G1 X89.684 Y114.225 E26.18873
G1 X90.294 Y114.225 E26.22340
G1 X86.614 Y110.545 E26.51933
G1 X87.202 Y110.523 E26.55280
G1 X90.903 Y114.225 E26.85045
G1 X91.513 Y114.225 E26.88512
G1 X87.812 Y110.523 E27.18278
G1 X88.421 Y110.523 E27.21745
G1 X92.123 Y114.225 E27.51510
G1 X92.733 Y114.225 E27.54977
G1 X89.031 Y110.523 E27.84742
G1 X89.641 Y110.523 E27.88210
G1 X93.343 Y114.225 E28.17975
G1 X93.952 Y114.225 E28.21442
G1 X90.251 Y110.523 E28.51207
G1 X90.860 Y110.523 E28.54675
G1 X94.562 Y114.225 E28.84440
G1 X95.172 Y114.225 E28.87907
G1 X91.470 Y110.523 E29.17672
G1 X92.080 Y110.523 E29.21140
G1 X95.782 Y114.225 E29.50905
G1 X96.391 Y114.225 E29.54372
G1 X92.690 Y110.523 E29.84137
G1 X93.299 Y110.523 E29.87604
G1 X97.001 Y114.225 E30.17370
G1 X97.611 Y114.225 E30.20837
G1 X93.909 Y110.523 E30.50602
G1 X94.519 Y110.523 E30.54069
G1 X98.221 Y114.225 E30.83835
G1 X98.830 Y114.225 E30.87302
G1 X95.129 Y110.523 E31.17067
G1 X95.738 Y110.523 E31.20534
G1 X99.440 Y114.225 E31.50300
G1 X100.028 Y114.203 E31.53647
G1 X96.348 Y110.523 E31.83239
G1 X96.958 Y110.523 E31.86706
G1 X100.047 Y113.612 E32.11544
G1 X100.047 Y113.002 E32.15011
G1 X97.568 Y110.523 E32.34946
G1 X98.178 Y110.523 E32.38413
G1 X100.047 Y112.392 E32.53444
G1 X100.047 Y111.783 E32.56911
