; generated by Slic3r 1.1.7 on 2015-03-19 at 00:38:39

; perimeters extrusion width = 0.40mm
; infill extrusion width = 0.42mm
; solid infill extrusion width = 0.42mm
; top infill extrusion width = 0.42mm

G21 ; set units to millimeters
M104 S190 ; set temperature
G28 ; home all axes
G1 Z5 F5000 ; lift nozzle
M109 S190 ; wait for temperature to be reached
G90 ; use absolute coordinates
G92 E0
M82 ; use absolute distances for extrusion
M106 S255
G1 F1800.000 E-1.00000
G92 E0
G1 Z0.300 F7800.000
G1 X70.777 Y85.197 F7800.000
G1 E1.00000 F1800.000
G1 X71.428 Y84.657 E1.04593 F1200.000
G1 X72.469 Y83.884 E1.11631
G1 X73.448 Y83.239 E1.17999
G1 X74.599 Y82.582 E1.25194
G1 X75.662 Y82.073 E1.31595
G1 X76.746 Y81.660 E1.37890
G1 X77.903 Y81.339 E1.44411
G1 X79.137 Y81.145 E1.51193
G1 X80.000 Y81.100 E1.55887
G1 X120.438 Y81.115 E3.75457
G1 X121.601 Y81.242 E3.81809 F1200.000
G1 X122.711 Y81.494 E3.87989
G1 X123.779 Y81.847 E3.94099
G1 X124.011 Y81.942 E3.95459
G1 X124.797 Y82.281 E4.00106
G1 X125.891 Y82.847 E4.06797
G1 X126.891 Y83.453 E4.13142
G1 X127.568 Y83.913 E4.17590
G1 X127.975 Y84.204 E4.20303
G1 X128.955 Y84.965 E4.27043
G1 X130.003 Y85.875 E4.34580
G1 X131.012 Y86.851 E4.42200
G1 X131.965 Y87.875 E4.49795
G1 X132.966 Y89.090 E4.58345
G1 X133.614 Y89.966 E4.64258
G1 X134.261 Y90.947 E4.70642
G1 X134.887 Y92.038 E4.77470
G1 X135.427 Y93.163 E4.84248
G1 X135.840 Y94.246 E4.90538
G1 X136.161 Y95.403 E4.97058
G1 X136.355 Y96.637 E5.03842
G1 X136.400 Y97.500 E5.08534
G1 X136.388 Y102.896 E5.37833
G1 X136.276 Y103.989 E5.43798
G1 X136.041 Y105.087 E5.49893
G1 X135.709 Y106.129 E5.55834
G1 X135.193 Y107.343 E5.62999
G1 X134.797 Y108.129 E5.67775
G1 X134.352 Y108.903 E5.72625
G1 X133.468 Y110.238 E5.81318
G1 X132.617 Y111.352 E5.88926
G1 X131.758 Y112.358 E5.96112
G1 X130.802 Y113.361 E6.03639
G1 X129.513 Y114.562 E6.13202
G1 X127.899 Y115.849 E6.24413
G1 X127.570 Y116.088 E6.26620
G1 X125.969 Y117.108 E6.36924
G1 X125.463 Y117.380 E6.40045
G1 X124.014 Y118.063 E6.48740
G1 X123.453 Y118.265 E6.51981
G1 X122.570 Y118.536 E6.56997
G1 X121.880 Y118.709 E6.60856
G1 X120.588 Y118.880 E6.67937
G1 X120.000 Y118.900 E6.71129
G1 X79.828 Y118.898 E8.89256
G1 X79.408 Y118.880 E8.91538
G1 X78.993 Y118.838 E8.93806
G1 X78.102 Y118.705 E8.98696
G1 X77.447 Y118.541 E9.02361
G1 X76.561 Y118.269 E9.07391
G1 X76.026 Y118.079 E9.10473
G1 X74.490 Y117.357 E9.19693
G1 X74.068 Y117.130 E9.22292
G1 X72.498 Y116.134 E9.32387
G1 X72.030 Y115.794 E9.35530
G1 X70.552 Y114.618 E9.45784
G1 X70.054 Y114.176 E9.49400
G1 X69.009 Y113.172 E9.57269
G1 X67.988 Y112.070 E9.65426
G1 X67.182 Y111.103 E9.72263
G1 X66.437 Y110.105 E9.79026
G1 X65.745 Y109.063 E9.85815
G1 X65.131 Y107.995 E9.92505
G1 X64.588 Y106.870 E9.99289
G1 X64.160 Y105.755 E10.05774
G1 X63.839 Y104.597 E10.12298
G1 X63.755 Y104.173 E10.14646
G1 X63.645 Y103.363 E10.19085
G1 X63.600 Y102.500 E10.23775
G1 X63.615 Y97.061 E10.53308
G1 X63.751 Y95.855 E10.59898
G1 X63.994 Y94.789 E10.65834
G1 X64.347 Y93.722 E10.71938
G1 X64.781 Y92.704 E10.77946
G1 X65.347 Y91.609 E10.84639
G1 X65.953 Y90.609 E10.90987
G1 X66.640 Y89.610 E10.97571
G1 X67.465 Y88.544 E11.04889
G1 X68.375 Y87.497 E11.12425
G1 X69.351 Y86.488 E11.20044
G1 X70.374 Y85.535 E11.27636
G1 X70.731 Y85.236 E11.30167
G1 F1800.000 E10.30167
G92 E0
G1 X76.871 Y101.952 F7800.000
G1 E1.00000 F1800.000
G1 X76.514 Y102.240 E1.02490 F600.000
G1 X76.114 Y102.464 E1.04980
G1 X75.681 Y102.616 E1.07470
G1 X75.229 Y102.694 E1.09960
G1 X74.771 Y102.694 E1.12450
G1 X74.319 Y102.616 E1.14940
G1 X73.886 Y102.464 E1.17429
G1 X73.793 Y102.412 E1.18009
G1 X73.486 Y102.240 E1.19919
G1 X73.129 Y101.952 E1.22409
G1 X72.826 Y101.608 E1.24899
G1 X72.586 Y101.217 E1.27389
G1 X72.415 Y100.792 E1.29879
G1 X72.321 Y100.354 E1.32311
G1 X72.302 Y100.069 E1.33860
G1 X72.303 Y99.854 E1.35030
G1 X72.357 Y99.430 E1.37347
G1 X72.491 Y98.992 E1.39837
G1 X72.698 Y98.582 E1.42327
G1 X72.970 Y98.214 E1.44817
G1 X73.161 Y98.031 E1.46252
G1 X73.161 Y97.875 E1.47099
G1 X74.099 Y97.451 E1.52689
G1 X74.543 Y97.335 E1.55179
G1 X75.000 Y97.296 E1.57669
G1 X75.106 Y97.305 E1.58248
G1 X75.457 Y97.335 E1.60159 F600.000
G1 X75.901 Y97.451 E1.62648
G1 X76.319 Y97.640 E1.65138
G1 X76.698 Y97.896 E1.67628
G1 X77.030 Y98.214 E1.70118
G1 X77.302 Y98.582 E1.72608
G1 X77.509 Y98.992 E1.75098
G1 X77.643 Y99.430 E1.77588
G1 X77.701 Y99.885 E1.80078
G1 X77.682 Y100.343 E1.82568
G1 X77.585 Y100.792 E1.85058
G1 X77.414 Y101.217 E1.87548
G1 X77.174 Y101.608 E1.90038
G1 X76.910 Y101.907 E1.92202
G1 X76.593 Y101.662 F7800.000
G1 X76.289 Y101.907 E1.94322 F600.000
G1 X75.948 Y102.098 E1.96442
G1 X75.580 Y102.228 E1.98562
G1 X75.195 Y102.294 E2.00683
G1 X74.805 Y102.294 E2.02803
G1 X74.420 Y102.228 E2.04923
G1 X74.052 Y102.098 E2.07043
G1 X73.711 Y101.907 E2.09163
G1 X73.407 Y101.662 E2.11283
G1 X73.149 Y101.369 E2.13404
G1 X72.944 Y101.036 E2.15524
G1 X72.799 Y100.674 E2.17644
G1 X72.718 Y100.299 E2.19730
G1 X72.702 Y99.883 E2.21987
G1 X72.750 Y99.515 E2.24003
G1 X72.864 Y99.142 E2.26123
G1 X73.040 Y98.793 E2.28243
G1 X73.272 Y98.479 E2.30363
G1 X73.561 Y98.202 E2.32540
G1 X73.561 Y98.133 E2.32913
G1 X74.233 Y97.829 E2.36916
G1 X74.683 Y97.725 E2.39426
G1 X75.000 Y97.698 E2.41151 F600.000
G1 X75.389 Y97.731 E2.43272
G1 X75.767 Y97.829 E2.45392
G1 X76.123 Y97.990 E2.47512
G1 X76.446 Y98.209 E2.49632
G1 X76.728 Y98.479 E2.51752
G1 X76.960 Y98.793 E2.53873
G1 X77.136 Y99.142 E2.55993
G1 X77.250 Y99.515 E2.58113
G1 X77.300 Y99.902 E2.60233
G1 X77.284 Y100.292 E2.62354
G1 X77.201 Y100.674 E2.64474
G1 X77.056 Y101.036 E2.66594
G1 X76.851 Y101.369 E2.68714
G1 X76.633 Y101.617 E2.70509
G1 X76.315 Y101.372 F7800.000
G1 X76.064 Y101.575 E2.72259 F420.000
G1 X75.783 Y101.732 E2.74009
G1 X75.479 Y101.839 E2.75760
G1 X75.161 Y101.894 E2.77510
G1 X74.839 Y101.894 E2.79261
G1 X74.521 Y101.839 E2.81011
G1 X74.183 Y101.713 E2.82969
G1 X73.936 Y101.575 E2.84510
G1 X73.685 Y101.372 E2.86260
G1 X73.472 Y101.130 E2.88011
G1 X73.303 Y100.856 E2.89761
G1 X73.183 Y100.557 E2.91512
G1 X73.115 Y100.244 E2.93251
G1 X73.101 Y100.027 E2.94430
G1 X73.142 Y99.600 E2.96760
G1 X73.254 Y99.257 E2.98718
G1 X73.381 Y99.003 E3.00258
G1 X73.573 Y98.744 E3.02009
G1 X73.806 Y98.521 E3.03759
G1 X73.961 Y98.416 E3.04777
G1 X73.961 Y98.391 E3.04913
G1 X74.367 Y98.208 E3.07330
G1 X74.679 Y98.127 E3.09080
G1 X75.039 Y98.103 E3.11038
G1 X75.321 Y98.127 E3.12578 F420.000
G1 X75.633 Y98.208 E3.14329
G1 X75.927 Y98.341 E3.16079
G1 X76.194 Y98.521 E3.17830
G1 X76.427 Y98.744 E3.19580
G1 X76.619 Y99.003 E3.21331
G1 X76.764 Y99.291 E3.23081
G1 X76.858 Y99.600 E3.24832
G1 X76.899 Y99.919 E3.26582
G1 X76.885 Y100.241 E3.28333
G1 X76.817 Y100.557 E3.30083
G1 X76.697 Y100.856 E3.31834
G1 X76.528 Y101.130 E3.33584
G1 X76.355 Y101.327 E3.35009
G1 F1800.000 E2.35009
G92 E0
G1 X75.011 Y97.820 F7800.000
G1 X86.075 Y100.429 F7800.000
G1 E1.00000 F1800.000
G1 X85.224 Y100.429 E1.04620 F600.000
G1 X85.190 Y100.587 E1.05495
G1 X85.064 Y100.902 E1.07340
G1 X84.885 Y101.191 E1.09185
G1 X84.661 Y101.447 E1.11031
G1 X84.397 Y101.660 E1.12876
G1 X84.100 Y101.826 E1.14721
G1 X83.779 Y101.939 E1.16566
G1 X83.444 Y101.996 E1.18412
G1 X83.105 Y101.996 E1.20257
G1 X82.770 Y101.939 E1.22102
G1 X82.449 Y101.826 E1.23947
G1 X82.153 Y101.660 E1.25793
G1 X82.076 Y101.599 E1.26324
G1 X81.888 Y101.447 E1.27638
G1 X81.664 Y101.191 E1.29483
G1 X81.485 Y100.902 E1.31328
G1 X81.359 Y100.587 E1.33174
G1 X81.289 Y100.265 E1.34961
G1 X81.277 Y99.883 E1.37035
G1 X81.316 Y99.578 E1.38706
G1 X81.415 Y99.253 E1.40551
G1 X81.568 Y98.949 E1.42397
G1 X81.771 Y98.676 E1.44242
G1 X82.016 Y98.441 E1.46087
G1 X82.297 Y98.251 E1.47932
G1 X82.387 Y98.211 E1.48463
G1 X82.607 Y98.111 E1.49778
G1 X82.936 Y98.025 E1.51623
G1 X83.275 Y97.996 E1.53468
G1 X83.613 Y98.025 E1.55313
G1 X83.708 Y98.050 E1.55844
G1 X83.942 Y98.111 E1.57159
G1 X84.252 Y98.251 E1.59004
G1 X84.533 Y98.441 E1.60849
G1 X84.779 Y98.676 E1.62694
G1 X86.039 Y100.381 E1.74207
G1 X84.871 Y100.029 F7800.000
G1 X84.864 Y100.204 E1.75154 F600.000
G1 X84.806 Y100.469 E1.76630
G1 X84.705 Y100.721 E1.78106
G1 X84.563 Y100.953 E1.79581
G1 X84.383 Y101.157 E1.81056
G1 X84.172 Y101.327 E1.82532
G1 X83.934 Y101.460 E1.84008
G1 X83.678 Y101.550 E1.85483
G1 X83.410 Y101.596 E1.86959
G1 X83.139 Y101.596 E1.88434
G1 X82.871 Y101.550 E1.89909
G1 X82.615 Y101.460 E1.91385
G1 X82.377 Y101.327 E1.92861
G1 X82.166 Y101.157 E1.94336
G1 X81.953 Y100.898 E1.96154
G1 X81.844 Y100.721 E1.97283
G1 X81.743 Y100.469 E1.98759
G1 X81.687 Y100.210 E2.00200
G1 X81.676 Y99.913 E2.01812
G1 X81.708 Y99.662 E2.03183
G1 X81.788 Y99.403 E2.04659
G1 X81.910 Y99.160 E2.06134
G1 X82.072 Y98.941 E2.07610
G1 X82.268 Y98.753 E2.09086
G1 X82.493 Y98.601 E2.10561
G1 X82.741 Y98.489 E2.12037
G1 X83.004 Y98.421 E2.13512
G1 X83.275 Y98.398 E2.14988
G1 X83.545 Y98.421 E2.16463
G1 X83.808 Y98.489 E2.17939
G1 X84.056 Y98.601 E2.19414
G1 X84.281 Y98.753 E2.20890
G1 X84.477 Y98.941 E2.22365
G1 X85.282 Y100.029 E2.29711
G1 X84.931 Y100.029 E2.31614
G1 X84.472 Y100.012 F7800.000
G1 X84.466 Y100.153 E2.32377 F420.000
G1 X84.423 Y100.352 E2.33483
G1 X84.347 Y100.541 E2.34589
G1 X84.240 Y100.714 E2.35695
G1 X84.105 Y100.867 E2.36800
G1 X83.947 Y100.995 E2.37906
G1 X83.769 Y101.094 E2.39012
G1 X83.577 Y101.162 E2.40118
G1 X83.376 Y101.196 E2.41224
G1 X83.173 Y101.196 E2.42329
G1 X82.972 Y101.162 E2.43435
G1 X82.780 Y101.094 E2.44541
G1 X82.602 Y100.995 E2.45647
G1 X82.444 Y100.867 E2.46753
G1 X82.294 Y100.689 E2.48018
G1 X82.202 Y100.541 E2.48962
G1 X82.126 Y100.352 E2.50068
G1 X82.084 Y100.155 E2.51162
G1 X82.076 Y99.943 E2.52314
G1 X82.101 Y99.747 E2.53385
G1 X82.160 Y99.552 E2.54491
G1 X82.252 Y99.370 E2.55597
G1 X82.373 Y99.207 E2.56702
G1 X82.520 Y99.066 E2.57808
G1 X82.689 Y98.952 E2.58914
G1 X82.875 Y98.868 E2.60020
G1 X83.072 Y98.817 E2.61126
G1 X83.304 Y98.802 E2.62391
G1 X83.477 Y98.817 E2.63335 F420.000
G1 X83.675 Y98.868 E2.64441
G1 X83.860 Y98.952 E2.65547
G1 X84.029 Y99.066 E2.66653
G1 X84.176 Y99.207 E2.67758
G1 X84.488 Y99.629 E2.70611
G1 X84.433 Y99.629 E2.70911
G1 X84.474 Y99.952 E2.72679
G1 X83.260 Y98.634 F7800.000
G1 F1800.000 E1.72679
G92 E0
G1 X122.300 Y100.005 F7800.000
G1 E1.00000 F1800.000
G1 X122.357 Y99.430 E1.03136 F600.000
G1 X122.491 Y98.992 E1.05627
G1 X122.698 Y98.582 E1.08117
G1 X122.970 Y98.214 E1.10606
G1 X123.302 Y97.897 E1.13096
G1 X123.390 Y97.837 E1.13676
G1 X123.681 Y97.640 E1.15586
G1 X124.099 Y97.451 E1.18076
G1 X124.543 Y97.335 E1.20566
G1 X125.000 Y97.296 E1.23056
G1 X125.106 Y97.305 E1.23636
G1 X125.457 Y97.335 E1.25546 F600.000
G1 X125.901 Y97.451 E1.28036
G1 X126.319 Y97.640 E1.30526
G1 X126.698 Y97.896 E1.33016
G1 X127.030 Y98.214 E1.35505
G1 X127.093 Y98.300 E1.36085
G1 X127.302 Y98.582 E1.37996
G1 X127.509 Y98.992 E1.40485
G1 X127.643 Y99.430 E1.42975
G1 X127.656 Y99.536 E1.43555
G1 X127.701 Y99.885 E1.45465
G1 X127.682 Y100.343 E1.47955
G1 X127.585 Y100.792 E1.50445
G1 X127.414 Y101.217 E1.52935
G1 X127.174 Y101.608 E1.55425
G1 X126.871 Y101.952 E1.57915
G1 X126.514 Y102.240 E1.60405
G1 X126.114 Y102.464 E1.62895
G1 X125.681 Y102.616 E1.65384
G1 X125.229 Y102.694 E1.67875
G1 X124.771 Y102.694 E1.70364
G1 X124.319 Y102.616 E1.72854
G1 X123.886 Y102.464 E1.75344
G1 X123.486 Y102.240 E1.77834
G1 X123.129 Y101.952 E1.80324
G1 X122.826 Y101.608 E1.82814
G1 X122.586 Y101.217 E1.85304
G1 X122.415 Y100.792 E1.87794
G1 X122.321 Y100.354 E1.90226
G1 X122.302 Y100.065 E1.91796
G1 X122.700 Y100.001 F7800.000
G1 X122.749 Y99.515 E1.94449 F600.000
G1 X122.864 Y99.142 E1.96569
G1 X123.040 Y98.793 E1.98689
G1 X123.272 Y98.479 E2.00810
G1 X123.554 Y98.209 E2.02930
G1 X123.877 Y97.990 E2.05050
G1 X124.233 Y97.829 E2.07170
G1 X124.683 Y97.725 E2.09680
G1 X125.000 Y97.698 E2.11406 F600.000
G1 X125.389 Y97.731 E2.13526
G1 X125.767 Y97.829 E2.15646
G1 X126.123 Y97.990 E2.17766
G1 X126.446 Y98.209 E2.19887
G1 X126.728 Y98.479 E2.22007
G1 X126.960 Y98.793 E2.24127
G1 X127.136 Y99.142 E2.26247
G1 X127.250 Y99.515 E2.28367
G1 X127.300 Y99.902 E2.30487
G1 X127.284 Y100.292 E2.32608
G1 X127.201 Y100.674 E2.34728
G1 X127.056 Y101.036 E2.36848
G1 X126.851 Y101.369 E2.38968
G1 X126.593 Y101.662 E2.41089
G1 X126.289 Y101.907 E2.43209
G1 X125.948 Y102.098 E2.45329
G1 X125.580 Y102.228 E2.47449
G1 X125.195 Y102.294 E2.49569
G1 X124.805 Y102.294 E2.51690
G1 X124.420 Y102.228 E2.53810
G1 X124.052 Y102.098 E2.55930
G1 X123.711 Y101.907 E2.58050
G1 X123.407 Y101.662 E2.60170
G1 X123.149 Y101.369 E2.62291
G1 X122.944 Y101.036 E2.64411
G1 X122.799 Y100.674 E2.66531
G1 X122.718 Y100.299 E2.68616
G1 X122.703 Y100.061 E2.69910
G1 X123.100 Y99.997 F7800.000
G1 X123.142 Y99.600 E2.72079 F420.000
G1 X123.236 Y99.291 E2.73829
G1 X123.381 Y99.003 E2.75580
G1 X123.573 Y98.744 E2.77330
G1 X123.838 Y98.500 E2.79288
G1 X124.073 Y98.341 E2.80828
G1 X124.367 Y98.208 E2.82579
G1 X124.679 Y98.127 E2.84329
G1 X125.039 Y98.103 E2.86287
G1 X125.321 Y98.127 E2.87828 F420.000
G1 X125.633 Y98.208 E2.89578
G1 X125.927 Y98.341 E2.91329
G1 X126.194 Y98.521 E2.93079
G1 X126.450 Y98.775 E2.95037
G1 X126.619 Y99.003 E2.96577
G1 X126.764 Y99.291 E2.98328
G1 X126.858 Y99.600 E3.00078
G1 X126.899 Y99.919 E3.01829
G1 X126.885 Y100.241 E3.03579
G1 X126.817 Y100.557 E3.05330
G1 X126.697 Y100.856 E3.07080
G1 X126.528 Y101.130 E3.08831
G1 X126.315 Y101.372 E3.10581
G1 X126.064 Y101.575 E3.12332
G1 X125.783 Y101.732 E3.14082
G1 X125.479 Y101.839 E3.15833
G1 X125.161 Y101.894 E3.17583
G1 X124.839 Y101.894 E3.19334
G1 X124.521 Y101.839 E3.21084
G1 X124.217 Y101.732 E3.22835
G1 X123.936 Y101.575 E3.24585
G1 X123.685 Y101.372 E3.26336
G1 X123.472 Y101.130 E3.28086
G1 X123.303 Y100.856 E3.29837
G1 X123.183 Y100.557 E3.31587
G1 X123.115 Y100.244 E3.33326
G1 X123.103 Y100.057 E3.34343
G1 F1800.000 E2.34343
G92 E0
G1 X125.123 Y97.832 F7800.000
G1 X118.002 Y99.915 F7800.000
G1 E1.00000 F1800.000
G1 X117.987 Y100.255 E1.01845 F600.000
G1 X117.916 Y100.587 E1.03690
G1 X117.789 Y100.902 E1.05536
G1 X117.611 Y101.191 E1.07381
G1 X117.386 Y101.447 E1.09226
G1 X117.122 Y101.660 E1.11071
G1 X116.825 Y101.826 E1.12917
G1 X116.505 Y101.939 E1.14762
G1 X116.170 Y101.996 E1.16607
G1 X115.830 Y101.996 E1.18452
G1 X115.495 Y101.939 E1.20298
G1 X115.175 Y101.826 E1.22143
G1 X114.878 Y101.660 E1.23988
G1 X114.614 Y101.447 E1.25833
G1 X114.389 Y101.191 E1.27679
G1 X114.211 Y100.902 E1.29524
G1 X114.084 Y100.587 E1.31369
G1 X114.015 Y100.265 E1.33156
G1 X114.002 Y99.883 E1.35230
G1 X114.041 Y99.578 E1.36901
G1 X114.141 Y99.253 E1.38747
G1 X114.294 Y98.950 E1.40592
G1 X114.496 Y98.676 E1.42437
G1 X114.741 Y98.441 E1.44282
G1 X115.023 Y98.251 E1.46128
G1 X115.333 Y98.111 E1.47973
G1 X115.661 Y98.025 E1.49818
G1 X116.000 Y97.996 E1.51664
G1 X116.097 Y98.005 E1.52195
G1 X116.339 Y98.025 E1.53509 F600.000
G1 X116.667 Y98.111 E1.55354
G1 X116.977 Y98.251 E1.57199
G1 X117.259 Y98.441 E1.59044
G1 X117.504 Y98.676 E1.60890
G1 X117.706 Y98.949 E1.62735
G1 X117.859 Y99.253 E1.64580
G1 X117.959 Y99.578 E1.66425
G1 X117.994 Y99.855 E1.67945
G1 X117.601 Y99.932 F7800.000
G1 X117.589 Y100.204 E1.69421 F600.000
G1 X117.532 Y100.469 E1.70896
G1 X117.431 Y100.721 E1.72372
G1 X117.288 Y100.953 E1.73847
G1 X117.109 Y101.157 E1.75323
G1 X116.897 Y101.327 E1.76798
G1 X116.660 Y101.460 E1.78274
G1 X116.404 Y101.550 E1.79749
G1 X116.136 Y101.596 E1.81225
G1 X115.864 Y101.596 E1.82700
G1 X115.596 Y101.550 E1.84176
G1 X115.340 Y101.460 E1.85651
G1 X115.103 Y101.327 E1.87127
G1 X114.891 Y101.157 E1.88602
G1 X114.712 Y100.953 E1.90078
G1 X114.569 Y100.721 E1.91553
G1 X114.468 Y100.469 E1.93029
G1 X114.412 Y100.210 E1.94470
G1 X114.402 Y99.913 E1.96082
G1 X114.434 Y99.662 E1.97453
G1 X114.513 Y99.403 E1.98929
G1 X114.674 Y99.109 E2.00747
G1 X114.797 Y98.941 E2.01876
G1 X114.993 Y98.753 E2.03352
G1 X115.219 Y98.601 E2.04827
G1 X115.466 Y98.489 E2.06303
G1 X115.793 Y98.415 E2.08121
G1 X116.000 Y98.398 E2.09250 F600.000
G1 X116.271 Y98.421 E2.10725
G1 X116.534 Y98.489 E2.12201
G1 X116.781 Y98.601 E2.13676
G1 X117.006 Y98.753 E2.15152
G1 X117.203 Y98.941 E2.16628
G1 X117.364 Y99.160 E2.18103
G1 X117.487 Y99.403 E2.19579
G1 X117.566 Y99.662 E2.21054
