; generated by Slic3r 1.1.7 on 2015-03-18 at 22:10:42

; perimeters extrusion width = 0.40mm
; infill extrusion width = 0.42mm
; solid infill extrusion width = 0.42mm
; top infill extrusion width = 0.42mm

G21 ; set units to millimeters
M104 S190 ; set temperature
G28 ; home all axes
G1 Z5 F5000 ; lift nozzle
M109 S190 ; wait for temperature to be reached
G90 ; use absolute coordinates
G92 E0
M82 ; use absolute distances for extrusion
M106 S255
G1 F1800.000 E-1.00000
G92 E0
G1 Z0.300 F7800.000
G1 X66.883 Y90.411 F7800.000
G1 E1.00000 F1800.000
G1 X70.000 Y89.600 E1.17489 F1200.000
G1 X130.000 Y89.600 E4.43278
G1 X132.219 Y89.997 E4.55516
G1 X134.162 Y91.138 E4.67754 F1200.000
G1 X135.589 Y92.883 E4.79992
G1 X136.400 Y96.000 E4.97481
G1 X136.400 Y103.521 E5.38318
G1 X136.003 Y105.740 E5.50557
G1 X134.862 Y107.683 E5.62795
G1 X133.117 Y109.110 E5.75033
G1 X130.000 Y109.921 E5.92522
G1 X70.000 Y109.921 E9.18310
G1 X67.781 Y109.524 E9.30549
G1 X65.838 Y108.383 E9.42787
G1 X64.411 Y106.638 E9.55025
G1 X63.600 Y103.521 E9.72514
G1 X63.600 Y96.000 E10.13351
G1 X63.997 Y93.781 E10.25589
G1 X65.138 Y91.838 E10.37828
G1 X66.836 Y90.449 E10.49740
G1 F1800.000 E9.49740
G92 E0
G1 X129.000 Y102.521 F7800.000
G1 E1.00000 F1800.000
G1 X71.000 Y102.521 E4.14929 F600.000
G1 X71.000 Y97.000 E4.44906
G1 X129.000 Y97.000 E7.59834
G1 X129.000 Y102.461 E7.89486
G1 X129.400 Y102.921 F7800.000
G1 X70.600 Y102.921 E11.08758 F600.000
G1 X70.600 Y96.600 E11.43080
G1 X129.400 Y96.600 E14.62352
G1 X129.400 Y102.861 E14.96348
G1 X129.800 Y103.321 F7800.000
G1 X70.200 Y103.321 E18.19964 F420.000
G1 X70.200 Y96.200 E18.58629
G1 X129.800 Y96.200 E21.82245
G1 X129.800 Y103.261 E22.20584
G1 X129.454 Y103.121 F7800.000
G1 X128.686 Y97.274 F7800.000
G1 X128.726 Y97.314 E22.20906 F1200.000
G1 X128.726 Y97.908 E22.24282
G1 X128.092 Y97.274 E22.29378
G1 X127.498 Y97.274 E22.32755
G1 X128.726 Y98.502 E22.42625
G1 X128.726 Y99.095 E22.46001
G1 X126.905 Y97.274 E22.60647
G1 X126.311 Y97.274 E22.64023
G1 X128.726 Y99.689 E22.83443
G1 X128.726 Y100.283 E22.86819
G1 X125.717 Y97.274 E23.11013
G1 X125.123 Y97.274 E23.14389
G1 X128.726 Y100.877 E23.43358
G1 X128.726 Y101.470 E23.46735
G1 X124.530 Y97.274 E23.80478
G1 X123.936 Y97.274 E23.83854
G1 X128.726 Y102.064 E24.22372
G1 X128.314 Y102.247 E24.24931
G1 X123.342 Y97.274 E24.64916
G1 X122.748 Y97.274 E24.68292
G1 X127.721 Y102.247 E25.08277
G1 X127.127 Y102.247 E25.11653
G1 X122.154 Y97.274 E25.51638
G1 X121.561 Y97.274 E25.55014
G1 X126.533 Y102.247 E25.95000
G1 X125.939 Y102.247 E25.98376
G1 X120.967 Y97.274 E26.38361
G1 X120.373 Y97.274 E26.41737
G1 X125.346 Y102.247 E26.81722
G1 X124.752 Y102.247 E26.85098
G1 X119.779 Y97.274 E27.25083
G1 X119.186 Y97.274 E27.28459
G1 X124.158 Y102.247 E27.68444
G1 X123.564 Y102.247 E27.71820
G1 X118.592 Y97.274 E28.11806
G1 X117.998 Y97.274 E28.15182
G1 X122.971 Y102.247 E28.55167
G1 X122.377 Y102.247 E28.58543
G1 X117.404 Y97.274 E28.98528
G1 X116.811 Y97.274 E29.01904
G1 X121.783 Y102.247 E29.41889
G1 X121.189 Y102.247 E29.45265
G1 X116.217 Y97.274 E29.85250
G1 X115.623 Y97.274 E29.88626
G1 X120.596 Y102.247 E30.28612
G1 X120.002 Y102.247 E30.31988
G1 X115.029 Y97.274 E30.71973
G1 X114.436 Y97.274 E30.75349
G1 X119.408 Y102.247 E31.15334
G1 X118.814 Y102.247 E31.18710
G1 X113.842 Y97.274 E31.58695
G1 X113.248 Y97.274 E31.62071
G1 X118.221 Y102.247 E32.02056
G1 X117.627 Y102.247 E32.05432
G1 X112.654 Y97.274 E32.45418
G1 X112.061 Y97.274 E32.48794
G1 X117.033 Y102.247 E32.88779
G1 X116.439 Y102.247 E32.92155
G1 X111.467 Y97.274 E33.32140
G1 X110.873 Y97.274 E33.35516
G1 X115.846 Y102.247 E33.75501
G1 X115.252 Y102.247 E33.78877
G1 X110.279 Y97.274 E34.18862
G1 X109.686 Y97.274 E34.22238
G1 X114.658 Y102.247 E34.62224
G1 X114.064 Y102.247 E34.65600
G1 X109.092 Y97.274 E35.05585
G1 X108.498 Y97.274 E35.08961
G1 X113.471 Y102.247 E35.48946
G1 X112.877 Y102.247 E35.52322
G1 X107.904 Y97.274 E35.92307
G1 X107.311 Y97.274 E35.95683
G1 X112.283 Y102.247 E36.35668
G1 X111.689 Y102.247 E36.39044
G1 X106.717 Y97.274 E36.79030
G1 X106.123 Y97.274 E36.82406
G1 X111.096 Y102.247 E37.22391
G1 X110.502 Y102.247 E37.25767
G1 X105.529 Y97.274 E37.65752
G1 X104.936 Y97.274 E37.69128
G1 X109.908 Y102.247 E38.09113
G1 X109.314 Y102.247 E38.12489
G1 X104.342 Y97.274 E38.52474
G1 X103.748 Y97.274 E38.55850
G1 X108.721 Y102.247 E38.95836
G1 X108.127 Y102.247 E38.99212
G1 X103.154 Y97.274 E39.39197
G1 X102.561 Y97.274 E39.42573
G1 X107.533 Y102.247 E39.82558
G1 X106.939 Y102.247 E39.85934
G1 X101.967 Y97.274 E40.25919
G1 X101.373 Y97.274 E40.29295
G1 X106.346 Y102.247 E40.69280
G1 X105.752 Y102.247 E40.72656
G1 X100.779 Y97.274 E41.12642
G1 X100.186 Y97.274 E41.16018
G1 X105.158 Y102.247 E41.56003
G1 X104.564 Y102.247 E41.59379
G1 X99.592 Y97.274 E41.99364
G1 X98.998 Y97.274 E42.02740
G1 X103.971 Y102.247 E42.42725
G1 X103.377 Y102.247 E42.46101
G1 X98.404 Y97.274 E42.86086
G1 X97.811 Y97.274 E42.89462
G1 X102.783 Y102.247 E43.29448
G1 X102.189 Y102.247 E43.32824
G1 X97.217 Y97.274 E43.72809
G1 X96.623 Y97.274 E43.76185
G1 X101.596 Y102.247 E44.16170
G1 X101.002 Y102.247 E44.19546
G1 X96.029 Y97.274 E44.59531
G1 X95.436 Y97.274 E44.62907
G1 X100.408 Y102.247 E45.02892
G1 X99.814 Y102.247 E45.06269
G1 X94.842 Y97.274 E45.46254
G1 X94.248 Y97.274 E45.49630
G1 X99.221 Y102.247 E45.89615
G1 X98.627 Y102.247 E45.92991
G1 X93.654 Y97.274 E46.32976
G1 X93.061 Y97.274 E46.36352
G1 X98.033 Y102.247 E46.76337
G1 X97.439 Y102.247 E46.79713
G1 X92.467 Y97.274 E47.19698
G1 X91.873 Y97.274 E47.23075
G1 X96.846 Y102.247 E47.63060
G1 X96.252 Y102.247 E47.66436
G1 X91.279 Y97.274 E48.06421
G1 X90.686 Y97.274 E48.09797
G1 X95.658 Y102.247 E48.49782
G1 X95.064 Y102.247 E48.53158
G1 X90.092 Y97.274 E48.93143
G1 X89.498 Y97.274 E48.96519
G1 X94.471 Y102.247 E49.36505
G1 X93.877 Y102.247 E49.39881
G1 X88.904 Y97.274 E49.79866
G1 X88.311 Y97.274 E49.83242
G1 X93.283 Y102.247 E50.23227
G1 X92.689 Y102.247 E50.26603
G1 X87.717 Y97.274 E50.66588
G1 X87.123 Y97.274 E50.69964
G1 X92.096 Y102.247 E51.09949
G1 X91.502 Y102.247 E51.13326
G1 X86.529 Y97.274 E51.53311
G1 X85.936 Y97.274 E51.56687
G1 X90.908 Y102.247 E51.96672
G1 X90.314 Y102.247 E52.00048
G1 X85.342 Y97.274 E52.40033
G1 X84.748 Y97.274 E52.43409
G1 X89.721 Y102.247 E52.83394
G1 X89.127 Y102.247 E52.86770
G1 X84.154 Y97.274 E53.26755
G1 X83.561 Y97.274 E53.30132
G1 X88.533 Y102.247 E53.70117
G1 X87.939 Y102.247 E53.73493
G1 X82.967 Y97.274 E54.13478
G1 X82.373 Y97.274 E54.16854
G1 X87.346 Y102.247 E54.56839
G1 X86.752 Y102.247 E54.60215
G1 X81.779 Y97.274 E55.00200
G1 X81.186 Y97.274 E55.03576
G1 X86.158 Y102.247 E55.43562
G1 X85.564 Y102.247 E55.46938
G1 X80.592 Y97.274 E55.86923
G1 X79.998 Y97.274 E55.90299
G1 X84.971 Y102.247 E56.30284
G1 X84.377 Y102.247 E56.33660
G1 X79.404 Y97.274 E56.73645
G1 X78.811 Y97.274 E56.77021
G1 X83.783 Y102.247 E57.17006
G1 X83.189 Y102.247 E57.20383
G1 X78.217 Y97.274 E57.60368
G1 X77.623 Y97.274 E57.63744
G1 X82.596 Y102.247 E58.03729
G1 X82.002 Y102.247 E58.07105
G1 X77.029 Y97.274 E58.47090
G1 X76.436 Y97.274 E58.50466
G1 X81.408 Y102.247 E58.90451
G1 X80.814 Y102.247 E58.93827
G1 X75.842 Y97.274 E59.33812
G1 X75.248 Y97.274 E59.37189
G1 X80.221 Y102.247 E59.77174
G1 X79.627 Y102.247 E59.80550
G1 X74.654 Y97.274 E60.20535
G1 X74.061 Y97.274 E60.23911
G1 X79.033 Y102.247 E60.63896
G1 X78.439 Y102.247 E60.67272
G1 X73.467 Y97.274 E61.07257
G1 X72.873 Y97.274 E61.10633
G1 X77.846 Y102.247 E61.50619
G1 X77.252 Y102.247 E61.53995
G1 X72.279 Y97.274 E61.93980
G1 X71.686 Y97.274 E61.97356
G1 X76.658 Y102.247 E62.37341
G1 X76.064 Y102.247 E62.40717
G1 X71.274 Y97.457 E62.79235
G1 X71.274 Y98.050 E62.82611
G1 X75.470 Y102.247 E63.16355
G1 X74.877 Y102.247 E63.19731
G1 X71.274 Y98.644 E63.48700
G1 X71.274 Y99.238 E63.52076
G1 X74.283 Y102.247 E63.76271
G1 X73.689 Y102.247 E63.79647
G1 X71.274 Y99.832 E63.99067
G1 X71.274 Y100.425 E64.02443
G1 X73.095 Y102.247 E64.17088
G1 X72.502 Y102.247 E64.20464
G1 X71.274 Y101.019 E64.30335
G1 X71.274 Y101.613 E64.33711
G1 X71.908 Y102.247 E64.38807
G1 X71.314 Y102.247 E64.42183
G1 X71.274 Y102.207 E64.42505
G1 F1800.000 E63.42505
G92 E0
G1 Z0.600 F7800.000
G1 X129.000 Y102.832 F7800.000
G1 E1.00000 F1800.000
G1 X71.000 Y102.832 E4.14929 F1200.000
G1 X71.000 Y97.000 E4.46596
G1 X129.000 Y97.000 E7.61525
G1 X129.000 Y102.772 E7.92866
G1 X129.400 Y103.232 F7800.000
G1 X70.600 Y103.232 E11.12139 F1200.000
G1 X70.600 Y96.600 E11.48150
G1 X129.400 Y96.600 E14.67422
G1 X129.400 Y103.172 E15.03108
G1 X129.800 Y103.632 F7800.000
G1 X70.200 Y103.632 E18.26724 F840.000
G1 X70.200 Y96.200 E18.67079
G1 X129.800 Y96.200 E21.90696
G1 X129.800 Y103.572 E22.30725
G1 X129.454 Y103.432 F7800.000
G1 X128.726 Y102.518 F7800.000
G1 X128.686 Y102.558 E22.31047 F2400.000
G1 X128.089 Y102.558 E22.34440
G1 X128.726 Y101.921 E22.39560
G1 X128.726 Y101.325 E22.42953
G1 X127.492 Y102.558 E22.52871
G1 X126.896 Y102.558 E22.56264
G1 X128.726 Y100.728 E22.70981
G1 X128.726 Y100.131 E22.74374
G1 X126.299 Y102.558 E22.93889
G1 X125.702 Y102.558 E22.97282
G1 X128.726 Y99.534 E23.21596
G1 X128.726 Y98.938 E23.24989
G1 X125.105 Y102.558 E23.54101
G1 X124.509 Y102.558 E23.57494
G1 X128.726 Y98.341 E23.91404
G1 X128.726 Y97.744 E23.94797
G1 X123.912 Y102.558 E24.33506
G1 X123.315 Y102.558 E24.36899
G1 X128.599 Y97.274 E24.79387
G1 X128.002 Y97.274 E24.82780
G1 X122.719 Y102.558 E25.25268
G1 X122.122 Y102.558 E25.28661
G1 X127.406 Y97.274 E25.71149
G1 X126.809 Y97.274 E25.74542
G1 X121.525 Y102.558 E26.17030
G1 X120.928 Y102.558 E26.20423
G1 X126.212 Y97.274 E26.62911
G1 X125.615 Y97.274 E26.66304
G1 X120.332 Y102.558 E27.08792
G1 X119.735 Y102.558 E27.12185
G1 X125.019 Y97.274 E27.54673
G1 X124.422 Y97.274 E27.58066
G1 X119.138 Y102.558 E28.00554
G1 X118.542 Y102.558 E28.03947
G1 X123.825 Y97.274 E28.46435
G1 X123.229 Y97.274 E28.49828
G1 X117.945 Y102.558 E28.92316
G1 X117.348 Y102.558 E28.95709
G1 X122.632 Y97.274 E29.38197
G1 X122.035 Y97.274 E29.41590
G1 X116.751 Y102.558 E29.84078
G1 X116.155 Y102.558 E29.87471
G1 X121.438 Y97.274 E30.29959
G1 X120.842 Y97.274 E30.33352
G1 X115.558 Y102.558 E30.75840
G1 X114.961 Y102.558 E30.79233
G1 X120.245 Y97.274 E31.21721
G1 X119.648 Y97.274 E31.25114
G1 X114.365 Y102.558 E31.67602
G1 X113.768 Y102.558 E31.70995
G1 X119.052 Y97.274 E32.13483
G1 X118.455 Y97.274 E32.16876
G1 X113.171 Y102.558 E32.59364
G1 X112.574 Y102.558 E32.62757
G1 X117.858 Y97.274 E33.05245
G1 X117.261 Y97.274 E33.08638
G1 X111.978 Y102.558 E33.51127
G1 X111.381 Y102.558 E33.54519
G1 X116.665 Y97.274 E33.97008
G1 X116.068 Y97.274 E34.00401
G1 X110.784 Y102.558 E34.42889
G1 X110.188 Y102.558 E34.46282
G1 X115.471 Y97.274 E34.88770
G1 X114.875 Y97.274 E34.92163
G1 X109.591 Y102.558 E35.34651
G1 X108.994 Y102.558 E35.38044
G1 X114.278 Y97.274 E35.80532
G1 X113.681 Y97.274 E35.83925
G1 X108.397 Y102.558 E36.26413
G1 X107.801 Y102.558 E36.29806
G1 X113.084 Y97.274 E36.72294
G1 X112.488 Y97.274 E36.75687
G1 X107.204 Y102.558 E37.18175
G1 X106.607 Y102.558 E37.21568
G1 X111.891 Y97.274 E37.64056
G1 X111.294 Y97.274 E37.67449
G1 X106.011 Y102.558 E38.09937
G1 X105.414 Y102.558 E38.13330
G1 X110.698 Y97.274 E38.55818
G1 X110.101 Y97.274 E38.59211
G1 X104.817 Y102.558 E39.01699
G1 X104.220 Y102.558 E39.05092
G1 X109.504 Y97.274 E39.47580
G1 X108.907 Y97.274 E39.50973
G1 X103.624 Y102.558 E39.93461
G1 X103.027 Y102.558 E39.96854
G1 X108.311 Y97.274 E40.39342
G1 X107.714 Y97.274 E40.42735
G1 X102.430 Y102.558 E40.85223
G1 X101.834 Y102.558 E40.88616
G1 X107.117 Y97.274 E41.31104
G1 X106.521 Y97.274 E41.34497
G1 X101.237 Y102.558 E41.76985
G1 X100.640 Y102.558 E41.80378
G1 X105.924 Y97.274 E42.22866
G1 X105.327 Y97.274 E42.26259
G1 X100.043 Y102.558 E42.68747
G1 X99.447 Y102.558 E42.72140
G1 X104.730 Y97.274 E43.14628
G1 X104.134 Y97.274 E43.18021
G1 X98.850 Y102.558 E43.60509
G1 X98.253 Y102.558 E43.63902
G1 X103.537 Y97.274 E44.06390
G1 X102.940 Y97.274 E44.09783
G1 X97.656 Y102.558 E44.52271
G1 X97.060 Y102.558 E44.55664
G1 X102.343 Y97.274 E44.98152
G1 X101.747 Y97.274 E45.01545
G1 X96.463 Y102.558 E45.44033
G1 X95.866 Y102.558 E45.47426
G1 X101.150 Y97.274 E45.89914
G1 X100.553 Y97.274 E45.93307
G1 X95.270 Y102.558 E46.35795
G1 X94.673 Y102.558 E46.39188
G1 X99.957 Y97.274 E46.81677
G1 X99.360 Y97.274 E46.85069
G1 X94.076 Y102.558 E47.27558
G1 X93.479 Y102.558 E47.30951
G1 X98.763 Y97.274 E47.73439
G1 X98.166 Y97.274 E47.76832
G1 X92.883 Y102.558 E48.19320
G1 X92.286 Y102.558 E48.22713
G1 X97.570 Y97.274 E48.65201
G1 X96.973 Y97.274 E48.68594
G1 X91.689 Y102.558 E49.11082
G1 X91.093 Y102.558 E49.14475
G1 X96.376 Y97.274 E49.56963
G1 X95.780 Y97.274 E49.60356
G1 X90.496 Y102.558 E50.02844
G1 X89.899 Y102.558 E50.06237
G1 X95.183 Y97.274 E50.48725
G1 X94.586 Y97.274 E50.52118
G1 X89.302 Y102.558 E50.94606
G1 X88.706 Y102.558 E50.97999
G1 X93.989 Y97.274 E51.40487
G1 X93.393 Y97.274 E51.43880
G1 X88.109 Y102.558 E51.86368
G1 X87.512 Y102.558 E51.89761
G1 X92.796 Y97.274 E52.32249
G1 X92.199 Y97.274 E52.35642
G1 X86.916 Y102.558 E52.78130
G1 X86.319 Y102.558 E52.81523
G1 X91.603 Y97.274 E53.24011
G1 X91.006 Y97.274 E53.27404
G1 X85.722 Y102.558 E53.69892
G1 X85.125 Y102.558 E53.73285
G1 X90.409 Y97.274 E54.15773
G1 X89.812 Y97.274 E54.19166
G1 X84.529 Y102.558 E54.61654
G1 X83.932 Y102.558 E54.65047
G1 X89.216 Y97.274 E55.07535
G1 X88.619 Y97.274 E55.10928
G1 X83.335 Y102.558 E55.53416
G1 X82.739 Y102.558 E55.56809
G1 X88.022 Y97.274 E55.99297
G1 X87.426 Y97.274 E56.02690
G1 X82.142 Y102.558 E56.45178
G1 X81.545 Y102.558 E56.48571
G1 X86.829 Y97.274 E56.91060
G1 X86.232 Y97.274 E56.94453
G1 X80.948 Y102.558 E57.36941
G1 X80.352 Y102.558 E57.40334
G1 X85.635 Y97.274 E57.82822
G1 X85.039 Y97.274 E57.86215
G1 X79.755 Y102.558 E58.28703
G1 X79.158 Y102.558 E58.32096
G1 X84.442 Y97.274 E58.74584
G1 X83.845 Y97.274 E58.77977
G1 X78.562 Y102.558 E59.20465
G1 X77.965 Y102.558 E59.23858
G1 X83.249 Y97.274 E59.66346
G1 X82.652 Y97.274 E59.69739
G1 X77.368 Y102.558 E60.12227
G1 X76.771 Y102.558 E60.15620
G1 X82.055 Y97.274 E60.58108
G1 X81.458 Y97.274 E60.61501
G1 X76.175 Y102.558 E61.03989
G1 X75.578 Y102.558 E61.07382
G1 X80.862 Y97.274 E61.49870
G1 X80.265 Y97.274 E61.53263
G1 X74.981 Y102.558 E61.95751
G1 X74.385 Y102.558 E61.99144
G1 X79.668 Y97.274 E62.41632
G1 X79.072 Y97.274 E62.45025
G1 X73.788 Y102.558 E62.87513
G1 X73.191 Y102.558 E62.90906
G1 X78.475 Y97.274 E63.33394
G1 X77.878 Y97.274 E63.36787
G1 X72.594 Y102.558 E63.79275
G1 X71.998 Y102.558 E63.82668
G1 X77.281 Y97.274 E64.25156
G1 X76.685 Y97.274 E64.28549
G1 X71.401 Y102.558 E64.71037
G1 X71.274 Y102.088 E64.73805
G1 X76.088 Y97.274 E65.12514
G1 X75.491 Y97.274 E65.15907
G1 X71.274 Y101.491 E65.49817
G1 X71.274 Y100.895 E65.53210
G1 X74.895 Y97.274 E65.82322
G1 X74.298 Y97.274 E65.85715
G1 X71.274 Y100.298 E66.10029
G1 X71.274 Y99.701 E66.13422
G1 X73.701 Y97.274 E66.32937
G1 X73.104 Y97.274 E66.36330
G1 X71.274 Y99.104 E66.51047
G1 X71.274 Y98.508 E66.54440
G1 X72.508 Y97.274 E66.64358
G1 X71.911 Y97.274 E66.67751
G1 X71.274 Y97.911 E66.72871
G1 X71.274 Y97.314 E66.76264
G1 X71.314 Y97.274 E66.76586
G1 F1800.000 E65.76586
G92 E0
G1 Z0.900 F7800.000
G1 X129.000 Y102.965 F7800.000
G1 E1.00000 F1800.000
G1 X71.000 Y102.965 E4.14929 F1200.000
G1 X71.000 Y97.000 E4.47319
G1 X129.000 Y97.000 E7.62247
G1 X129.000 Y102.905 E7.94311
G1 X129.400 Y103.365 F7800.000
G1 X70.600 Y103.365 E11.13584 F1200.000
G1 X70.600 Y96.600 E11.50317
G1 X129.400 Y96.600 E14.69590
G1 X129.400 Y103.305 E15.05998
G1 X129.800 Y103.765 F7800.000
G1 X70.200 Y103.765 E18.29614 F840.000
G1 X70.200 Y96.200 E18.70692
G1 X129.800 Y96.200 E21.94308
G1 X129.800 Y103.705 E22.35060
G1 X129.454 Y103.565 F7800.000
G1 X128.686 Y97.274 F7800.000
G1 X128.726 Y97.314 E22.35382 F2400.000
G1 X128.726 Y97.911 E22.38775
G1 X128.089 Y97.274 E22.43895
G1 X127.492 Y97.274 E22.47288
G1 X128.726 Y98.508 E22.57206
G1 X128.726 Y99.104 E22.60599
G1 X126.896 Y97.274 E22.75316
G1 X126.299 Y97.274 E22.78709
G1 X128.726 Y99.701 E22.98224
G1 X128.726 Y100.298 E23.01617
G1 X125.702 Y97.274 E23.25931
