; generated by Slic3r 1.1.7 on 2015-03-18 at 23:17:30

; perimeters extrusion width = 0.40mm
; infill extrusion width = 0.42mm
; solid infill extrusion width = 0.42mm
; top infill extrusion width = 0.42mm
; support material extrusion width = 0.40mm

G21 ; set units to millimeters
M104 S190 ; set temperature
G28 ; home all axes
G1 Z5 F5000 ; lift nozzle
M109 S190 ; wait for temperature to be reached
G90 ; use absolute coordinates
G92 E0
M82 ; use absolute distances for extrusion
M106 S255
G1 F1800.000 E-1.00000
G92 E0
G1 Z0.300 F7800.000
G1 X64.349 Y90.019 F7800.000
G1 E1.00000 F1800.000
G1 X66.241 Y88.793 E1.12238 F1200.000
G1 X68.722 Y88.292 E1.25983
G1 X130.288 Y88.292 E4.60275
G1 X131.228 Y88.292 E4.65378 F1200.000
G1 X133.447 Y88.689 E4.77617
G1 X135.390 Y89.830 E4.89855
G1 X136.817 Y91.575 E5.02093
G1 X137.594 Y94.036 E5.16107
G1 X137.708 Y95.470 E5.23917
G1 X137.708 Y104.847 E5.74831
G1 X137.030 Y107.714 E5.90832
G1 X135.651 Y109.580 E6.03429
G1 X133.759 Y110.806 E6.15667
G1 X131.278 Y111.306 E6.29411
G1 X68.772 Y111.306 E9.68807
G1 X66.553 Y110.910 E9.81045
G1 X64.610 Y109.768 E9.93283
G1 X63.183 Y108.024 E10.05521
G1 X62.406 Y105.563 E10.19535
G1 X62.292 Y104.129 E10.27345
G1 X62.292 Y94.752 E10.78260
G1 X62.970 Y91.884 E10.94260
G1 X64.313 Y90.067 E11.06531
G1 F1800.000 E10.06531
G92 E0
G1 X66.895 Y92.529 F7800.000
G1 E1.00000 F1800.000
G1 X67.607 Y92.089 E1.04546 F1200.000
G1 X68.303 Y91.892 E1.08475
G1 X82.252 Y91.892 E1.84212
G1 X132.016 Y91.892 E4.54420 F1200.000
G1 X133.197 Y92.551 E4.61763
G1 X134.024 Y93.891 E4.70317
G1 X134.041 Y94.260 E4.72319
G1 X134.108 Y94.407 E4.73202
G1 X134.108 Y104.083 E5.25740
G1 X134.070 Y104.406 E5.27502
G1 X134.079 Y104.493 E5.27979
G1 X134.294 Y105.138 E5.31671
G1 X133.594 Y106.535 E5.40155
G1 X133.105 Y107.069 E5.44084
G1 X132.393 Y107.509 E5.48630
G1 X131.697 Y107.706 E5.52559
G1 X67.984 Y107.706 E8.98504
G1 X66.803 Y107.048 E9.05847
G1 X65.976 Y105.707 E9.14402
G1 X65.959 Y105.339 E9.16404
G1 X65.892 Y105.191 E9.17286
G1 X65.892 Y95.515 E9.69824
G1 X65.930 Y95.193 E9.71587
G1 X65.921 Y95.105 E9.72063
G1 X65.706 Y94.460 E9.75755
G1 X66.406 Y93.063 E9.84240
G1 X66.854 Y92.574 E9.87843
G1 X67.152 Y92.840 F7800.000
G1 X67.770 Y92.459 E9.91784 F1200.000
G1 X68.359 Y92.292 E9.95109
G1 X82.148 Y92.292 E10.69979
G1 X131.912 Y92.292 E13.40187 F1200.000
G1 X132.911 Y92.849 E13.46400
G1 X133.629 Y94.013 E13.53825
G1 X133.647 Y94.406 E13.55964
G1 X133.708 Y94.547 E13.56794
G1 X133.708 Y104.060 E14.08451
G1 X133.659 Y104.398 E14.10308
G1 X133.663 Y104.510 E14.10912
G1 X133.862 Y105.107 E14.14331
G1 X133.261 Y106.306 E14.21614
G1 X132.848 Y106.758 E14.24939
G1 X132.230 Y107.139 E14.28880
G1 X131.641 Y107.306 E14.32204
G1 X68.088 Y107.306 E17.77283
G1 X67.089 Y106.749 E17.83496
G1 X66.371 Y105.585 E17.90920
G1 X66.353 Y105.192 E17.93060
G1 X66.292 Y105.052 E17.93890
G1 X66.292 Y95.538 E18.45547
G1 X66.341 Y95.200 E18.47403
G1 X66.337 Y95.089 E18.48008
G1 X66.138 Y94.491 E18.51427
G1 X66.739 Y93.292 E18.58709
G1 X67.112 Y92.885 E18.61708
G1 X67.410 Y93.152 F7800.000
G1 X67.933 Y92.829 E18.65045 F1200.000
G1 X68.415 Y92.692 E18.67765
G1 X82.044 Y92.692 E19.41768
G1 X131.808 Y92.692 E22.11976 F1200.000
G1 X132.625 Y93.148 E22.17060
G1 X133.234 Y94.135 E22.23355
G1 X133.253 Y94.553 E22.25631
G1 X133.308 Y94.686 E22.26410
G1 X133.308 Y104.037 E22.77185
G1 X133.243 Y104.417 E22.79278
G1 X133.248 Y104.528 E22.79882
G1 X133.430 Y105.076 E22.83018
G1 X132.928 Y106.077 E22.89099
G1 X132.590 Y106.447 E22.91819
G1 X132.067 Y106.770 E22.95156
G1 X131.585 Y106.906 E22.97876
G1 X68.192 Y106.906 E26.42087
G1 X67.375 Y106.450 E26.47171
G1 X66.766 Y105.464 E26.53466
G1 X66.747 Y105.045 E26.55742
G1 X66.692 Y104.913 E26.56520
G1 X66.692 Y95.562 E27.07296
G1 X66.757 Y95.182 E27.09389
G1 X66.752 Y95.070 E27.09993
G1 X66.570 Y94.522 E27.13129
G1 X67.072 Y93.521 E27.19210
G1 X67.369 Y93.196 E27.21604
G1 X67.667 Y93.463 F7800.000
G1 X68.096 Y93.198 E27.24336 F1200.000
G1 X68.470 Y93.092 E27.26452
G1 X81.940 Y93.092 E27.99588
G1 X131.704 Y93.092 E30.69796 F1200.000
G1 X132.339 Y93.447 E30.73750
G1 X132.839 Y94.256 E30.78915
G1 X132.859 Y94.700 E30.81328
G1 X132.908 Y94.825 E30.82056
G1 X132.908 Y104.014 E31.31949
G1 X132.828 Y104.435 E31.34280
G1 X132.833 Y104.546 E31.34884
G1 X132.998 Y105.045 E31.37737
G1 X132.596 Y105.848 E31.42616
G1 X132.333 Y106.136 E31.44732
G1 X131.904 Y106.400 E31.47464
G1 X131.530 Y106.506 E31.49580
G1 X68.296 Y106.506 E34.92923
G1 X67.660 Y106.152 E34.96877
G1 X67.161 Y105.342 E35.02043
G1 X67.141 Y104.898 E35.04456
G1 X67.092 Y104.774 E35.05183
G1 X67.092 Y95.585 E35.55077
G1 X67.172 Y95.163 E35.57407
G1 X67.167 Y95.052 E35.58012
G1 X67.002 Y94.553 E35.60865
G1 X67.404 Y93.750 E35.65743
G1 X67.627 Y93.507 E35.67533
G1 X67.925 Y93.774 F7800.000
G1 X68.258 Y93.568 E35.69661 F1200.000
G1 X68.526 Y93.492 E35.71172
G1 X81.836 Y93.492 E36.43441
G1 X131.600 Y93.492 E39.13649 F1200.000
G1 X132.054 Y93.745 E39.16473
G1 X132.444 Y94.378 E39.20509
G1 X132.465 Y94.847 E39.23059
G1 X132.508 Y94.962 E39.23728
G1 X132.508 Y96.489 E39.32016
G1 X132.478 Y96.673 E39.33028
G1 X132.508 Y96.806 E39.33772
G1 X132.508 Y98.364 E39.42230
G1 X132.478 Y98.548 E39.43242
G1 X132.508 Y98.682 E39.43985
G1 X132.508 Y100.240 E39.52443
G1 X132.478 Y100.424 E39.53455
G1 X132.508 Y100.557 E39.54199
G1 X132.508 Y102.115 E39.62657
G1 X132.478 Y102.299 E39.63669
G1 X132.508 Y102.433 E39.64412
G1 X132.508 Y103.990 E39.72870
G1 X132.457 Y104.264 E39.74384
G1 X132.409 Y104.398 E39.75155
G1 X132.407 Y104.533 E39.75889
G1 X132.566 Y105.014 E39.78640
G1 X132.263 Y105.619 E39.82317
G1 X132.075 Y105.825 E39.83828
G1 X131.742 Y106.030 E39.85956
G1 X131.474 Y106.106 E39.87467
G1 X68.400 Y106.106 E43.29944
G1 X67.946 Y105.853 E43.32768
G1 X67.556 Y105.221 E43.36804
G1 X67.535 Y104.751 E43.39354
G1 X67.492 Y104.636 E43.40024
G1 X67.492 Y103.110 E43.48312
G1 X67.522 Y102.926 E43.49323
G1 X67.492 Y102.792 E43.50067
G1 X67.492 Y101.234 E43.58525
G1 X67.522 Y101.050 E43.59537
G1 X67.492 Y100.916 E43.60280
G1 X67.492 Y99.359 E43.68738
G1 X67.522 Y99.175 E43.69750
G1 X67.492 Y99.041 E43.70494
G1 X67.492 Y97.483 E43.78952
G1 X67.522 Y97.299 E43.79964
G1 X67.492 Y97.166 E43.80707
G1 X67.492 Y95.608 E43.89165
G1 X67.543 Y95.334 E43.90679
G1 X67.591 Y95.200 E43.91451
G1 X67.593 Y95.065 E43.92184
G1 X67.434 Y94.584 E43.94936
G1 X67.737 Y93.979 E43.98612
G1 X67.884 Y93.818 E43.99798
G1 X68.182 Y94.085 F7800.000
G1 X68.421 Y93.938 E44.01321 F1200.000
G1 X68.582 Y93.892 E44.02228
G1 X81.732 Y93.892 E44.73629
G1 X131.496 Y93.892 E47.43838 F1200.000
G1 X131.768 Y94.044 E47.45532
G1 X132.049 Y94.499 E47.48438
G1 X132.053 Y94.831 E47.50241
G1 X132.077 Y95.063 E47.51506
G1 X132.108 Y95.103 E47.51781
G1 X132.108 Y96.466 E47.59180
G1 X132.043 Y96.732 E47.60671
G1 X132.076 Y96.938 E47.61800
G1 X132.108 Y96.978 E47.62082
G1 X132.108 Y98.341 E47.69481
G1 X132.043 Y98.608 E47.70972
G1 X132.076 Y98.813 E47.72101
G1 X132.108 Y98.854 E47.72383
G1 X132.108 Y100.216 E47.79782
G1 X132.043 Y100.483 E47.81273
G1 X132.076 Y100.688 E47.82402
G1 X132.108 Y100.729 E47.82684
G1 X132.108 Y102.092 E47.90083
G1 X132.043 Y102.358 E47.91574
G1 X132.076 Y102.564 E47.92703
G1 X132.108 Y102.604 E47.92985
G1 X132.108 Y103.967 E48.00384
G1 X132.073 Y104.150 E48.01394
G1 X131.986 Y104.342 E48.02540
G1 X131.974 Y104.501 E48.03404
G1 X132.135 Y104.983 E48.06163
G1 X131.930 Y105.390 E48.08638
G1 X131.818 Y105.513 E48.09545
G1 X131.579 Y105.661 E48.11068
G1 X131.418 Y105.706 E48.11975
G1 X68.504 Y105.706 E51.53584
G1 X68.232 Y105.554 E51.55279
G1 X67.951 Y105.099 E51.58185
G1 X67.947 Y104.767 E51.59988
G1 X67.923 Y104.535 E51.61253
G1 X67.892 Y104.495 E51.61528
G1 X67.892 Y103.133 E51.68927
G1 X67.957 Y102.866 E51.70418
G1 X67.924 Y102.661 E51.71547
G1 X67.892 Y102.620 E51.71829
G1 X67.892 Y101.257 E51.79228
G1 X67.957 Y100.991 E51.80719
G1 X67.924 Y100.785 E51.81848
G1 X67.892 Y100.745 E51.82130
G1 X67.892 Y99.382 E51.89529
G1 X67.957 Y99.115 E51.91020
G1 X67.924 Y98.910 E51.92149
G1 X67.892 Y98.869 E51.92431
G1 X67.892 Y97.507 E51.99830
G1 X67.957 Y97.240 E52.01321
G1 X67.924 Y97.035 E52.02450
G1 X67.892 Y96.994 E52.02732
G1 X67.892 Y95.631 E52.10131
G1 X67.927 Y95.449 E52.11141
G1 X68.014 Y95.256 E52.12287
G1 X68.026 Y95.098 E52.13151
G1 X67.865 Y94.616 E52.15910
G1 X68.070 Y94.208 E52.18385
G1 X68.142 Y94.129 E52.18966
G1 X68.440 Y94.396 F7800.000
G1 X68.637 Y94.292 E52.20178 F1200.000
G1 X69.357 Y94.292 E52.24086
G1 X69.513 Y94.310 E52.24939
G1 X69.577 Y94.292 E52.25301
G1 X70.297 Y94.292 E52.29209
G1 X70.453 Y94.310 E52.30063
G1 X70.517 Y94.292 E52.30425
G1 X71.237 Y94.292 E52.34333
G1 X71.393 Y94.310 E52.35186
G1 X71.457 Y94.292 E52.35548
G1 X72.177 Y94.292 E52.39456
G1 X72.333 Y94.310 E52.40309
G1 X72.397 Y94.292 E52.40671
G1 X73.117 Y94.292 E52.44579
G1 X73.273 Y94.310 E52.45432
G1 X73.337 Y94.292 E52.45794
G1 X74.057 Y94.292 E52.49702
G1 X74.213 Y94.310 E52.50555
G1 X74.277 Y94.292 E52.50917
G1 X74.997 Y94.292 E52.54825
G1 X75.153 Y94.310 E52.55678
G1 X75.217 Y94.292 E52.56041
G1 X75.937 Y94.292 E52.59949
G1 X76.093 Y94.310 E52.60802
G1 X76.157 Y94.292 E52.61164
G1 X76.877 Y94.292 E52.65072
G1 X77.033 Y94.310 E52.65925
G1 X77.097 Y94.292 E52.66287
G1 X77.817 Y94.292 E52.70195
G1 X77.973 Y94.310 E52.71048
G1 X78.037 Y94.292 E52.71410
G1 X78.756 Y94.292 E52.75318
G1 X78.913 Y94.310 E52.76171
G1 X78.977 Y94.292 E52.76533
G1 X79.696 Y94.292 E52.80441
G1 X79.852 Y94.310 E52.81294
G1 X79.917 Y94.292 E52.81657
G1 X80.636 Y94.292 E52.85565
G1 X80.792 Y94.310 E52.86418
G1 X80.857 Y94.292 E52.86780
G1 X81.576 Y94.292 E52.90688
G1 X81.732 Y94.310 E52.91541
G1 X81.796 Y94.292 E52.91903
G1 X82.516 Y94.292 E52.95811
G1 X82.672 Y94.310 E52.96664
G1 X82.736 Y94.292 E52.97026
G1 X83.456 Y94.292 E53.00934
G1 X83.612 Y94.310 E53.01787
G1 X83.676 Y94.292 E53.02149
G1 X84.396 Y94.292 E53.06057
G1 X84.552 Y94.310 E53.06910
G1 X84.616 Y94.292 E53.07272
G1 X85.336 Y94.292 E53.11180
G1 X85.492 Y94.310 E53.12034
G1 X85.556 Y94.292 E53.12396
G1 X86.276 Y94.292 E53.16304
G1 X86.432 Y94.310 E53.17157
G1 X86.496 Y94.292 E53.17519
G1 X87.216 Y94.292 E53.21427
G1 X87.372 Y94.310 E53.22280
G1 X87.436 Y94.292 E53.22642
G1 X88.156 Y94.292 E53.26550
G1 X88.312 Y94.310 E53.27403
G1 X88.376 Y94.292 E53.27765
G1 X89.096 Y94.292 E53.31673
G1 X89.252 Y94.310 E53.32526
G1 X89.316 Y94.292 E53.32888
G1 X90.036 Y94.292 E53.36796
G1 X90.192 Y94.310 E53.37650
G1 X90.256 Y94.292 E53.38012
G1 X90.976 Y94.292 E53.41920
G1 X91.132 Y94.310 E53.42773
G1 X91.196 Y94.292 E53.43135
G1 X91.916 Y94.292 E53.47043
G1 X92.072 Y94.310 E53.47896
G1 X92.136 Y94.292 E53.48258
G1 X92.856 Y94.292 E53.52166
G1 X93.012 Y94.310 E53.53019
G1 X93.076 Y94.292 E53.53381
G1 X93.796 Y94.292 E53.57289
G1 X93.952 Y94.310 E53.58142
G1 X94.016 Y94.292 E53.58504
G1 X94.735 Y94.292 E53.62412
G1 X94.892 Y94.310 E53.63265
G1 X94.956 Y94.292 E53.63628
G1 X95.675 Y94.292 E53.67536
G1 X95.831 Y94.310 E53.68389
G1 X95.896 Y94.292 E53.68751
G1 X96.615 Y94.292 E53.72659
G1 X96.771 Y94.310 E53.73512
G1 X96.836 Y94.292 E53.73874
G1 X97.555 Y94.292 E53.77782
G1 X97.711 Y94.310 E53.78635
G1 X97.775 Y94.292 E53.78997
G1 X98.495 Y94.292 E53.82905
G1 X98.651 Y94.310 E53.83758
G1 X98.715 Y94.292 E53.84120
G1 X99.435 Y94.292 E53.88028
G1 X99.591 Y94.310 E53.88881
G1 X99.655 Y94.292 E53.89244
G1 X100.375 Y94.292 E53.93152
G1 X100.531 Y94.310 E53.94005
G1 X100.595 Y94.292 E53.94367
G1 X101.315 Y94.292 E53.98275
G1 X101.471 Y94.310 E53.99128
G1 X101.535 Y94.292 E53.99490
G1 X102.255 Y94.292 E54.03398
G1 X102.411 Y94.310 E54.04251
G1 X102.475 Y94.292 E54.04613
G1 X103.195 Y94.292 E54.08521
G1 X103.351 Y94.310 E54.09374
G1 X103.415 Y94.292 E54.09736
G1 X104.135 Y94.292 E54.13644
G1 X104.291 Y94.310 E54.14497
G1 X104.355 Y94.292 E54.14859
G1 X105.075 Y94.292 E54.18767
G1 X105.231 Y94.310 E54.19621
G1 X105.295 Y94.292 E54.19983
G1 X106.015 Y94.292 E54.23891
G1 X106.171 Y94.310 E54.24744
G1 X106.235 Y94.292 E54.25106
G1 X106.955 Y94.292 E54.29014
G1 X107.111 Y94.310 E54.29867
G1 X107.175 Y94.292 E54.30229
G1 X107.895 Y94.292 E54.34137
G1 X108.051 Y94.310 E54.34990
G1 X108.115 Y94.292 E54.35352
G1 X108.835 Y94.292 E54.39260
G1 X108.991 Y94.310 E54.40113
G1 X109.055 Y94.292 E54.40475
G1 X109.774 Y94.292 E54.44383
G1 X109.931 Y94.310 E54.45237
G1 X109.995 Y94.292 E54.45599
G1 X110.714 Y94.292 E54.49507
G1 X110.870 Y94.310 E54.50360
G1 X110.935 Y94.292 E54.50722
G1 X111.654 Y94.292 E54.54630
G1 X111.810 Y94.310 E54.55483
G1 X111.875 Y94.292 E54.55845
G1 X112.594 Y94.292 E54.59753
G1 X112.750 Y94.310 E54.60606
G1 X112.815 Y94.292 E54.60968
G1 X113.534 Y94.292 E54.64876
G1 X113.690 Y94.310 E54.65729
G1 X113.754 Y94.292 E54.66091
G1 X114.474 Y94.292 E54.69999
G1 X114.630 Y94.310 E54.70852
G1 X114.694 Y94.292 E54.71215
G1 X115.414 Y94.292 E54.75123
G1 X115.570 Y94.310 E54.75976
G1 X115.634 Y94.292 E54.76338
G1 X116.354 Y94.292 E54.80246
G1 X116.510 Y94.310 E54.81099
G1 X116.574 Y94.292 E54.81461
G1 X117.294 Y94.292 E54.85369
G1 X117.450 Y94.310 E54.86222
G1 X117.514 Y94.292 E54.86584
G1 X118.234 Y94.292 E54.90492
G1 X118.390 Y94.310 E54.91345
G1 X118.454 Y94.292 E54.91707
G1 X119.174 Y94.292 E54.95615
G1 X119.330 Y94.310 E54.96468
G1 X119.394 Y94.292 E54.96831
G1 X120.114 Y94.292 E55.00739
G1 X120.270 Y94.310 E55.01592
G1 X120.334 Y94.292 E55.01954
G1 X121.054 Y94.292 E55.05862
G1 X121.210 Y94.310 E55.06715
G1 X121.274 Y94.292 E55.07077
G1 X121.994 Y94.292 E55.10985
G1 X122.150 Y94.310 E55.11838
G1 X122.214 Y94.292 E55.12200
G1 X122.934 Y94.292 E55.16108
G1 X123.090 Y94.310 E55.16961
G1 X123.154 Y94.292 E55.17323
G1 X123.874 Y94.292 E55.21231
G1 X124.030 Y94.310 E55.22084
G1 X124.094 Y94.292 E55.22447
G1 X124.814 Y94.292 E55.26355
G1 X124.970 Y94.310 E55.27208
G1 X125.034 Y94.292 E55.27570
G1 X125.753 Y94.292 E55.31478
G1 X125.910 Y94.310 E55.32331
G1 X125.974 Y94.292 E55.32693
G1 X126.693 Y94.292 E55.36601
G1 X126.849 Y94.310 E55.37454
G1 X126.914 Y94.292 E55.37816
G1 X127.633 Y94.292 E55.41724
G1 X127.789 Y94.310 E55.42577
G1 X127.854 Y94.292 E55.42939
G1 X128.573 Y94.292 E55.46847
G1 X128.729 Y94.310 E55.47700
G1 X128.793 Y94.292 E55.48062
G1 X129.513 Y94.292 E55.51971
G1 X129.669 Y94.310 E55.52824
G1 X129.733 Y94.292 E55.53186
G1 X130.453 Y94.292 E55.57094
G1 X130.609 Y94.310 E55.57947
G1 X130.673 Y94.292 E55.58309
G1 X131.392 Y94.292 E55.62208
G1 X131.482 Y94.343 E55.62773
G1 X131.654 Y94.621 E55.64550
G1 X131.659 Y94.725 E55.65114
G1 X131.581 Y94.880 E55.66055
G1 X131.605 Y95.112 E55.67320
G1 X131.708 Y95.242 E55.68223
G1 X131.708 Y96.442 E55.74741
G1 X131.681 Y96.555 E55.75371
G1 X131.581 Y96.755 E55.76585
G1 X131.605 Y96.987 E55.77850
G1 X131.708 Y97.117 E55.78752
G1 X131.708 Y98.318 E55.85270
G1 X131.681 Y98.431 E55.85901
G1 X131.581 Y98.631 E55.87114
G1 X131.605 Y98.862 E55.88380
G1 X131.708 Y98.993 E55.89282
G1 X131.708 Y100.193 E55.95800
G1 X131.681 Y100.306 E55.96431
G1 X131.581 Y100.506 E55.97644
G1 X131.605 Y100.738 E55.98910
G1 X131.708 Y100.868 E55.99812
G1 X131.708 Y102.068 E56.06330
G1 X131.681 Y102.181 E56.06960
G1 X131.581 Y102.381 E56.08174
G1 X131.605 Y102.613 E56.09439
G1 X131.708 Y102.743 E56.10341
G1 X131.708 Y103.944 E56.16859
G1 X131.681 Y104.057 E56.17490
G1 X131.485 Y104.449 E56.19873
G1 X131.589 Y104.764 E56.21673
G1 X131.651 Y104.794 E56.22045
G1 X131.703 Y104.952 E56.22945
G1 X131.598 Y105.161 E56.24218
G1 X131.560 Y105.202 E56.24520
G1 X131.363 Y105.306 E56.25733
G1 X130.643 Y105.306 E56.29641
G1 X130.487 Y105.288 E56.30494
G1 X130.423 Y105.306 E56.30856
G1 X129.703 Y105.306 E56.34764
G1 X129.547 Y105.288 E56.35617
G1 X129.483 Y105.306 E56.35979
G1 X128.763 Y105.306 E56.39887
G1 X128.607 Y105.288 E56.40740
G1 X128.543 Y105.306 E56.41102
G1 X127.823 Y105.306 E56.45010
G1 X127.667 Y105.288 E56.45863
G1 X127.603 Y105.306 E56.46225
G1 X126.883 Y105.306 E56.50133
G1 X126.727 Y105.288 E56.50986
G1 X126.663 Y105.306 E56.51349
G1 X125.943 Y105.306 E56.55257
G1 X125.787 Y105.288 E56.56110
G1 X125.723 Y105.306 E56.56472
G1 X125.003 Y105.306 E56.60380
G1 X124.847 Y105.288 E56.61233
G1 X124.783 Y105.306 E56.61595
